(G-CODE GENERATED BY FLATCAM v8.918 - www.flatcam.org - Version Date: 2019/06/11)

(Name: AS5600-breakout-Edge_Cuts.gbr_1_cutout_cnc)
(Type: G-code from Geometry)
(Units: MM)

(Created on Monday, 17 June 2019 at 10:36)

(TOOL DIAMETER: 1.0 mm)
(Feedrate: 100.0 mm/min)
(Feedrate_Z: 80.0 mm/min)
(Feedrate rapids 76.2 mm/min)

(Z_Cut: -1.8 mm)
(Z_Move: 2.0 mm)
(Z Toolchange: 12.7 mm)
(X,Y Toolchange: 0.0000, 0.0000 mm)
(Z Start: None mm)
(Z End: 12.7 mm)
(Steps per circle: 128)
(Postprocessor Geometry: default)

(X range:    8.0710 ...   39.1930  mm)
(Y range:   23.6195 ...   49.6570  mm)

(Spindle Speed: 1000 RPM)
	
G21
G90
G94

G01 F100.00
G00 Z2.0000

M03 S1000
G00 X8.0710 Y36.0633
G01 F80.00
G01 Z-1.8000
G01 F100.00
G01 X8.0712 Y28.8477
G01 X8.0892 Y28.7167
G01 X8.1389 Y28.5889
G01 X8.2015 Y28.4952
G01 X8.3006 Y28.4004
G01 X8.4558 Y28.3175
G01 X8.6460 Y28.2850
G01 X21.1381 Y28.2850
G01 X20.9846 Y27.7255
G01 X20.9265 Y27.2394
G01 X20.9434 Y26.7059
G01 X21.0418 Y26.1813
G01 X21.2032 Y25.7192
G01 X21.4723 Y25.2080
G01 X21.8247 Y24.7502
G01 X22.1775 Y24.4108
G01 X22.6132 Y24.1026
G01 X23.0911 Y23.8648
G01 X23.5571 Y23.7148
G01 X24.1713 Y23.6195
G01 X24.6609 Y23.6212
G01 X25.1883 Y23.7031
G01 X25.6969 Y23.8648
G01 X26.1360 Y24.0814
G01 X26.6365 Y24.4337
G01 X26.9938 Y24.7822
G01 X27.2904 Y25.1717
G01 X27.5848 Y25.7192
G01 X27.7462 Y26.1813
G01 X27.8446 Y26.7059
G01 X27.8615 Y27.2394
G01 X27.8034 Y27.7255
G01 X27.6499 Y28.2850
G01 X38.6180 Y28.2850
G01 X38.8082 Y28.3175
G01 X38.9828 Y28.4155
G01 X39.0625 Y28.4952
G01 X39.1361 Y28.6109
G01 X39.1766 Y28.7239
G01 X39.1928 Y28.8477
G01 X39.1930 Y36.0633
G00 Z2.0000
G00 X39.1930 Y37.2133
G01 F80.00
G01 Z-1.8000
G01 F100.00
G01 X39.1928 Y44.8743
G01 X39.1766 Y44.9981
G01 X39.1393 Y45.1045
G01 X39.0776 Y45.2074
G01 X39.0014 Y45.2905
G01 X38.8380 Y45.3932
G01 X38.6303 Y45.4368
G01 X28.1478 Y45.4370
G01 X28.1812 Y45.8054
G01 X28.1523 Y46.3432
G01 X28.0393 Y46.9043
G01 X27.8295 Y47.4733
G01 X27.5391 Y47.9884
G01 X27.1676 Y48.4557
G01 X26.7822 Y48.8181
G01 X26.3484 Y49.1211
G01 X25.7976 Y49.3962
G01 X25.2513 Y49.5676
G01 X24.6854 Y49.6546
G01 X24.1563 Y49.6570
G01 X23.5467 Y49.5699
G01 X23.0000 Y49.4000
G01 X22.5234 Y49.1702
G01 X21.9879 Y48.8024
G01 X21.5969 Y48.4322
G01 X21.2693 Y48.0167
G01 X20.9493 Y47.4514
G01 X20.7601 Y46.9471
G01 X20.6405 Y46.3872
G01 X20.6066 Y45.8157
G01 X20.6392 Y45.4448
G01 X8.6213 Y45.4364
G01 X8.4256 Y45.3931
G01 X8.3262 Y45.3399
G01 X8.2391 Y45.2683
G01 X8.1677 Y45.1811
G01 X8.1147 Y45.0819
G01 X8.0820 Y44.9742
G01 X8.0710 Y44.8620
G00 Z2.0000
G00 X8.0710 Y44.8620
G01 F80.00
G01 Z-1.8000
G01 F100.00
G01 X8.0710 Y37.2133
G00 Z2.0000
M05
G00 Z2.0000
G00 Z12.70
G00 X0.0 Y0.0

M02