(G-CODE GENERATED BY FLATCAM v8.918 - www.flatcam.org - Version Date: 2019/06/11)

(Name: drill.drl_cnc-1mm)
(Type: G-code from Excellon)
(Units: MM)

(Created on Sunday, 16 June 2019 at 21:30)

(Feedrate: 80.0 mm/min)
(Feedrate rapids 76.2 mm/min)

(Z_Cut: -1.9 mm)
(Z_Move: 2.54 mm)
(Z Toolchange: 12.7 mm)
(X,Y Toolchange: 0.0000, 0.0000 mm)
(Z Start: None mm)
(Z End: 12.7 mm)
(Steps per circle: 128)
(Postprocessor Excellon: default)

(X range:    2.9070 ...   34.3240  mm)
(Y range:    1.7960 ...   44.9780  mm)

(Spindle Speed: 1000.0 RPM)

G21
G90
G94

G01 F80.00
G00 Z2.5400

M03 S1000.0
G00 X14.4770 Y13.0560
G01 Z-1.9000
G01 Z0
G00 Z2.5400
G00 X11.4290 Y14.8340
G01 Z-1.9000
G01 Z0
G00 Z2.5400
G00 X11.4290 Y17.3740
G01 Z-1.9000
G01 Z0
G00 Z2.5400
G00 X18.0750 Y29.4000
G01 Z-1.9000
G01 Z0
G00 Z2.5400
G00 X18.0750 Y31.9390
G01 Z-1.9000
G01 Z0
G00 Z2.5400
G00 X18.0750 Y34.4800
G01 Z-1.9000
G01 Z0
G00 Z2.5400
G00 X18.0750 Y37.0190
G01 Z-1.9000
G01 Z0
G00 Z2.5400
G00 X18.0750 Y39.5600
G01 Z-1.9000
G01 Z0
G00 Z2.5400
G00 X21.1230 Y35.2420
G01 Z-1.9000
G01 Z0
G00 Z2.5400
G00 X31.2840 Y31.5980
G01 Z-1.9000
G01 Z0
G00 Z2.5400
G00 X33.8240 Y31.5980
G01 Z-1.9000
G01 Z0
G00 Z2.5400
G00 X30.7260 Y28.6560
G01 Z-1.9000
G01 Z0
G00 Z2.5400
G00 X27.1770 Y9.4120
G01 Z-1.9000
G01 Z0
G00 Z2.5400
G00 X24.6370 Y9.4120
G01 Z-1.9000
G01 Z0
G00 Z2.5400
G00 X24.0790 Y6.4700
G01 Z-1.9000
G01 Z0
G00 Z2.5400
G00 X11.4290 Y7.2140
G01 Z-1.9000
G01 Z0
G00 Z2.5400
G00 X11.4290 Y9.7540
G01 Z-1.9000
G01 Z0
G00 Z2.5400
G00 X11.4290 Y12.2940
G01 Z-1.9000
G01 Z0
G00 Z2.5400
M05
G00 Z12.70
G00 X0.0 Y0.0

M02