(G-CODE GENERATED BY FLATCAM v8.918 - www.flatcam.org - Version Date: 2019/06/11)

(Name: drill.drl_cnc-0p8)
(Type: G-code from Excellon)
(Units: MM)

(Created on Sunday, 16 June 2019 at 21:30)

(Feedrate: 80.0 mm/min)
(Feedrate rapids 76.2 mm/min)

(Z_Cut: -1.9 mm)
(Z_Move: 2.54 mm)
(Z Toolchange: 12.7 mm)
(X,Y Toolchange: 0.0000, 0.0000 mm)
(Z Start: None mm)
(Z End: 12.7 mm)
(Steps per circle: 128)
(Postprocessor Excellon: default)

(X range:    2.9070 ...   34.3240  mm)
(Y range:    1.7960 ...   44.9780  mm)

(Spindle Speed: 1000.0 RPM)

G21
G90
G94

G01 F80.00
G00 Z2.5400

M03 S1000.0
G00 X17.5250 Y17.3740
G01 Z-1.9000
G01 Z0
G00 Z2.5400
G00 X19.5250 Y17.3740
G01 Z-1.9000
G01 Z0
G00 Z2.5400
G00 X25.2870 Y12.5120
G01 Z-1.9000
G01 Z0
G00 Z2.5400
G00 X25.2870 Y17.5120
G01 Z-1.9000
G01 Z0
G00 Z2.5400
G00 X31.9330 Y34.6970
G01 Z-1.9000
G01 Z0
G00 Z2.5400
G00 X31.9330 Y39.6970
G01 Z-1.9000
G01 Z0
G00 Z2.5400
G00 X26.1710 Y39.5600
G01 Z-1.9000
G01 Z0
G00 Z2.5400
G00 X24.1710 Y39.5600
G01 Z-1.9000
G01 Z0
G00 Z2.5400
G00 X13.1530 Y39.5240
G01 Z-1.9000
G01 Z0
G00 Z2.5400
G00 X9.9530 Y38.2940
G01 Z-1.9000
G01 Z0
G00 Z2.5400
G00 X13.1530 Y31.9030
G01 Z-1.9000
G01 Z0
G00 Z2.5400
G00 X9.9530 Y30.6740
G01 Z-1.9000
G01 Z0
G00 Z2.5400
G00 X6.5070 Y17.3380
G01 Z-1.9000
G01 Z0
G00 Z2.5400
G00 X3.3070 Y16.1080
G01 Z-1.9000
G01 Z0
G00 Z2.5400
G00 X3.3070 Y8.4880
G01 Z-1.9000
G01 Z0
G00 Z2.5400
G00 X6.5070 Y9.7180
G01 Z-1.9000
G01 Z0
G00 Z2.5400
M05
G00 Z12.70
G00 X0.0 Y0.0

M02