(G-CODE GENERATED BY FLATCAM v8.918 - www.flatcam.org - Version Date: 2019/06/11)

(Name: drill.drl_mill_cnc_1mm_mill)
(Type: G-code from Geometry)
(Units: MM)

(Created on Sunday, 16 June 2019 at 21:33)

(TOOL DIAMETER: 1.0 mm)
(Feedrate: 120.0 mm/min)
(Feedrate_Z: 80.0 mm/min)
(Feedrate rapids 76.2 mm/min)

(Z_Cut: -1.9 mm)
(DepthPerCut: 0.45 mm <=>5 passes)
(Z_Move: 2.54 mm)
(Z Toolchange: 12.7 mm)
(X,Y Toolchange: 0.0000, 0.0000 mm)
(Z Start: None mm)
(Z End: 12.7 mm)
(Steps per circle: 128)
(Postprocessor Geometry: default)

(X range:   15.1470 ...   22.9940  mm)
(Y range:    2.2960 ...   44.4780  mm)

(Spindle Speed: 1000 RPM)

G21
G90
G94

G01 F120.00
G00 Z2.5400

M03 S1000
G00 X16.3470 Y2.8960
G01 F80.00
G01 Z-0.4500
G01 F120.00
G01 X16.3355 Y2.7789
G01 X16.3013 Y2.6664
G01 X16.2459 Y2.5627
G01 X16.1713 Y2.4717
G01 X16.0803 Y2.3971
G01 X15.9766 Y2.3417
G01 X15.8641 Y2.3075
G01 X15.7470 Y2.2960
G01 X15.6299 Y2.3075
G01 X15.5174 Y2.3417
G01 X15.4137 Y2.3971
G01 X15.3227 Y2.4717
G01 X15.2481 Y2.5627
G01 X15.1927 Y2.6664
G01 X15.1585 Y2.7789
G01 X15.1470 Y2.8960
G01 X15.1585 Y3.0131
G01 X15.1927 Y3.1256
G01 X15.2481 Y3.2293
G01 X15.3227 Y3.3203
G01 X15.4137 Y3.3949
G01 X15.5174 Y3.4503
G01 X15.6299 Y3.4845
G01 X15.7470 Y3.4960
G01 X15.8641 Y3.4845
G01 X15.9766 Y3.4503
G01 X16.0803 Y3.3949
G01 X16.1713 Y3.3203
G01 X16.2459 Y3.2293
G01 X16.3013 Y3.1256
G01 X16.3355 Y3.0131
G01 X16.3470 Y2.8960
G00 X16.3470 Y2.8960
G01 F80.00
G01 Z-0.9000
G01 F120.00
G01 X16.3355 Y2.7789
G01 X16.3013 Y2.6664
G01 X16.2459 Y2.5627
G01 X16.1713 Y2.4717
G01 X16.0803 Y2.3971
G01 X15.9766 Y2.3417
G01 X15.8641 Y2.3075
G01 X15.7470 Y2.2960
G01 X15.6299 Y2.3075
G01 X15.5174 Y2.3417
G01 X15.4137 Y2.3971
G01 X15.3227 Y2.4717
G01 X15.2481 Y2.5627
G01 X15.1927 Y2.6664
G01 X15.1585 Y2.7789
G01 X15.1470 Y2.8960
G01 X15.1585 Y3.0131
G01 X15.1927 Y3.1256
G01 X15.2481 Y3.2293
G01 X15.3227 Y3.3203
G01 X15.4137 Y3.3949
G01 X15.5174 Y3.4503
G01 X15.6299 Y3.4845
G01 X15.7470 Y3.4960
G01 X15.8641 Y3.4845
G01 X15.9766 Y3.4503
G01 X16.0803 Y3.3949
G01 X16.1713 Y3.3203
G01 X16.2459 Y3.2293
G01 X16.3013 Y3.1256
G01 X16.3355 Y3.0131
G01 X16.3470 Y2.8960
G00 X16.3470 Y2.8960
G01 F80.00
G01 Z-1.3500
G01 F120.00
G01 X16.3355 Y2.7789
G01 X16.3013 Y2.6664
G01 X16.2459 Y2.5627
G01 X16.1713 Y2.4717
G01 X16.0803 Y2.3971
G01 X15.9766 Y2.3417
G01 X15.8641 Y2.3075
G01 X15.7470 Y2.2960
G01 X15.6299 Y2.3075
G01 X15.5174 Y2.3417
G01 X15.4137 Y2.3971
G01 X15.3227 Y2.4717
G01 X15.2481 Y2.5627
G01 X15.1927 Y2.6664
G01 X15.1585 Y2.7789
G01 X15.1470 Y2.8960
G01 X15.1585 Y3.0131
G01 X15.1927 Y3.1256
G01 X15.2481 Y3.2293
G01 X15.3227 Y3.3203
G01 X15.4137 Y3.3949
G01 X15.5174 Y3.4503
G01 X15.6299 Y3.4845
G01 X15.7470 Y3.4960
G01 X15.8641 Y3.4845
G01 X15.9766 Y3.4503
G01 X16.0803 Y3.3949
G01 X16.1713 Y3.3203
G01 X16.2459 Y3.2293
G01 X16.3013 Y3.1256
G01 X16.3355 Y3.0131
G01 X16.3470 Y2.8960
G00 X16.3470 Y2.8960
G01 F80.00
G01 Z-1.8000
G01 F120.00
G01 X16.3355 Y2.7789
G01 X16.3013 Y2.6664
G01 X16.2459 Y2.5627
G01 X16.1713 Y2.4717
G01 X16.0803 Y2.3971
G01 X15.9766 Y2.3417
G01 X15.8641 Y2.3075
G01 X15.7470 Y2.2960
G01 X15.6299 Y2.3075
G01 X15.5174 Y2.3417
G01 X15.4137 Y2.3971
G01 X15.3227 Y2.4717
G01 X15.2481 Y2.5627
G01 X15.1927 Y2.6664
G01 X15.1585 Y2.7789
G01 X15.1470 Y2.8960
G01 X15.1585 Y3.0131
G01 X15.1927 Y3.1256
G01 X15.2481 Y3.2293
G01 X15.3227 Y3.3203
G01 X15.4137 Y3.3949
G01 X15.5174 Y3.4503
G01 X15.6299 Y3.4845
G01 X15.7470 Y3.4960
G01 X15.8641 Y3.4845
G01 X15.9766 Y3.4503
G01 X16.0803 Y3.3949
G01 X16.1713 Y3.3203
G01 X16.2459 Y3.2293
G01 X16.3013 Y3.1256
G01 X16.3355 Y3.0131
G01 X16.3470 Y2.8960
G00 X16.3470 Y2.8960
G01 F80.00
G01 Z-1.9000
G01 F120.00
G01 X16.3355 Y2.7789
G01 X16.3013 Y2.6664
G01 X16.2459 Y2.5627
G01 X16.1713 Y2.4717
G01 X16.0803 Y2.3971
G01 X15.9766 Y2.3417
G01 X15.8641 Y2.3075
G01 X15.7470 Y2.2960
G01 X15.6299 Y2.3075
G01 X15.5174 Y2.3417
G01 X15.4137 Y2.3971
G01 X15.3227 Y2.4717
G01 X15.2481 Y2.5627
G01 X15.1927 Y2.6664
G01 X15.1585 Y2.7789
G01 X15.1470 Y2.8960
G01 X15.1585 Y3.0131
G01 X15.1927 Y3.1256
G01 X15.2481 Y3.2293
G01 X15.3227 Y3.3203
G01 X15.4137 Y3.3949
G01 X15.5174 Y3.4503
G01 X15.6299 Y3.4845
G01 X15.7470 Y3.4960
G01 X15.8641 Y3.4845
G01 X15.9766 Y3.4503
G01 X16.0803 Y3.3949
G01 X16.1713 Y3.3203
G01 X16.2459 Y3.2293
G01 X16.3013 Y3.1256
G01 X16.3355 Y3.0131
G01 X16.3470 Y2.8960
G00 Z2.5400
G00 X16.3470 Y21.6920
G01 F80.00
G01 Z-0.4500
G01 F120.00
G01 X16.3355 Y21.5749
G01 X16.3013 Y21.4624
G01 X16.2459 Y21.3587
G01 X16.1713 Y21.2677
G01 X16.0803 Y21.1931
G01 X15.9766 Y21.1377
G01 X15.8641 Y21.1035
G01 X15.7470 Y21.0920
G01 X15.6299 Y21.1035
G01 X15.5174 Y21.1377
G01 X15.4137 Y21.1931
G01 X15.3227 Y21.2677
G01 X15.2481 Y21.3587
G01 X15.1927 Y21.4624
G01 X15.1585 Y21.5749
G01 X15.1470 Y21.6920
G01 X15.1585 Y21.8091
G01 X15.1927 Y21.9216
G01 X15.2481 Y22.0253
G01 X15.3227 Y22.1163
G01 X15.4137 Y22.1909
G01 X15.5174 Y22.2463
G01 X15.6299 Y22.2805
G01 X15.7470 Y22.2920
G01 X15.8641 Y22.2805
G01 X15.9766 Y22.2463
G01 X16.0803 Y22.1909
G01 X16.1713 Y22.1163
G01 X16.2459 Y22.0253
G01 X16.3013 Y21.9216
G01 X16.3355 Y21.8091
G01 X16.3470 Y21.6920
G00 X16.3470 Y21.6920
G01 F80.00
G01 Z-0.9000
G01 F120.00
G01 X16.3355 Y21.5749
G01 X16.3013 Y21.4624
G01 X16.2459 Y21.3587
G01 X16.1713 Y21.2677
G01 X16.0803 Y21.1931
G01 X15.9766 Y21.1377
G01 X15.8641 Y21.1035
G01 X15.7470 Y21.0920
G01 X15.6299 Y21.1035
G01 X15.5174 Y21.1377
G01 X15.4137 Y21.1931
G01 X15.3227 Y21.2677
G01 X15.2481 Y21.3587
G01 X15.1927 Y21.4624
G01 X15.1585 Y21.5749
G01 X15.1470 Y21.6920
G01 X15.1585 Y21.8091
G01 X15.1927 Y21.9216
G01 X15.2481 Y22.0253
G01 X15.3227 Y22.1163
G01 X15.4137 Y22.1909
G01 X15.5174 Y22.2463
G01 X15.6299 Y22.2805
G01 X15.7470 Y22.2920
G01 X15.8641 Y22.2805
G01 X15.9766 Y22.2463
G01 X16.0803 Y22.1909
G01 X16.1713 Y22.1163
G01 X16.2459 Y22.0253
G01 X16.3013 Y21.9216
G01 X16.3355 Y21.8091
G01 X16.3470 Y21.6920
G00 X16.3470 Y21.6920
G01 F80.00
G01 Z-1.3500
G01 F120.00
G01 X16.3355 Y21.5749
G01 X16.3013 Y21.4624
G01 X16.2459 Y21.3587
G01 X16.1713 Y21.2677
G01 X16.0803 Y21.1931
G01 X15.9766 Y21.1377
G01 X15.8641 Y21.1035
G01 X15.7470 Y21.0920
G01 X15.6299 Y21.1035
G01 X15.5174 Y21.1377
G01 X15.4137 Y21.1931
G01 X15.3227 Y21.2677
G01 X15.2481 Y21.3587
G01 X15.1927 Y21.4624
G01 X15.1585 Y21.5749
G01 X15.1470 Y21.6920
G01 X15.1585 Y21.8091
G01 X15.1927 Y21.9216
G01 X15.2481 Y22.0253
G01 X15.3227 Y22.1163
G01 X15.4137 Y22.1909
G01 X15.5174 Y22.2463
G01 X15.6299 Y22.2805
G01 X15.7470 Y22.2920
G01 X15.8641 Y22.2805
G01 X15.9766 Y22.2463
G01 X16.0803 Y22.1909
G01 X16.1713 Y22.1163
G01 X16.2459 Y22.0253
G01 X16.3013 Y21.9216
G01 X16.3355 Y21.8091
G01 X16.3470 Y21.6920
G00 X16.3470 Y21.6920
G01 F80.00
G01 Z-1.8000
G01 F120.00
G01 X16.3355 Y21.5749
G01 X16.3013 Y21.4624
G01 X16.2459 Y21.3587
G01 X16.1713 Y21.2677
G01 X16.0803 Y21.1931
G01 X15.9766 Y21.1377
G01 X15.8641 Y21.1035
G01 X15.7470 Y21.0920
G01 X15.6299 Y21.1035
G01 X15.5174 Y21.1377
G01 X15.4137 Y21.1931
G01 X15.3227 Y21.2677
G01 X15.2481 Y21.3587
G01 X15.1927 Y21.4624
G01 X15.1585 Y21.5749
G01 X15.1470 Y21.6920
G01 X15.1585 Y21.8091
G01 X15.1927 Y21.9216
G01 X15.2481 Y22.0253
G01 X15.3227 Y22.1163
G01 X15.4137 Y22.1909
G01 X15.5174 Y22.2463
G01 X15.6299 Y22.2805
G01 X15.7470 Y22.2920
G01 X15.8641 Y22.2805
G01 X15.9766 Y22.2463
G01 X16.0803 Y22.1909
G01 X16.1713 Y22.1163
G01 X16.2459 Y22.0253
G01 X16.3013 Y21.9216
G01 X16.3355 Y21.8091
G01 X16.3470 Y21.6920
G00 X16.3470 Y21.6920
G01 F80.00
G01 Z-1.9000
G01 F120.00
G01 X16.3355 Y21.5749
G01 X16.3013 Y21.4624
G01 X16.2459 Y21.3587
G01 X16.1713 Y21.2677
G01 X16.0803 Y21.1931
G01 X15.9766 Y21.1377
G01 X15.8641 Y21.1035
G01 X15.7470 Y21.0920
G01 X15.6299 Y21.1035
G01 X15.5174 Y21.1377
G01 X15.4137 Y21.1931
G01 X15.3227 Y21.2677
G01 X15.2481 Y21.3587
G01 X15.1927 Y21.4624
G01 X15.1585 Y21.5749
G01 X15.1470 Y21.6920
G01 X15.1585 Y21.8091
G01 X15.1927 Y21.9216
G01 X15.2481 Y22.0253
G01 X15.3227 Y22.1163
G01 X15.4137 Y22.1909
G01 X15.5174 Y22.2463
G01 X15.6299 Y22.2805
G01 X15.7470 Y22.2920
G01 X15.8641 Y22.2805
G01 X15.9766 Y22.2463
G01 X16.0803 Y22.1909
G01 X16.1713 Y22.1163
G01 X16.2459 Y22.0253
G01 X16.3013 Y21.9216
G01 X16.3355 Y21.8091
G01 X16.3470 Y21.6920
G00 Z2.5400
G00 X22.9940 Y25.0810
G01 F80.00
G01 Z-0.4500
G01 F120.00
G01 X22.9825 Y24.9639
G01 X22.9483 Y24.8514
G01 X22.8929 Y24.7477
G01 X22.8183 Y24.6567
G01 X22.7273 Y24.5821
G01 X22.6236 Y24.5267
G01 X22.5111 Y24.4925
G01 X22.3940 Y24.4810
G01 X22.2769 Y24.4925
G01 X22.1644 Y24.5267
G01 X22.0607 Y24.5821
G01 X21.9697 Y24.6567
G01 X21.8951 Y24.7477
G01 X21.8397 Y24.8514
G01 X21.8055 Y24.9639
G01 X21.7940 Y25.0810
G01 X21.8055 Y25.1981
G01 X21.8397 Y25.3106
G01 X21.8951 Y25.4143
G01 X21.9697 Y25.5053
G01 X22.0607 Y25.5799
G01 X22.1644 Y25.6353
G01 X22.2769 Y25.6695
G01 X22.3940 Y25.6810
G01 X22.5111 Y25.6695
G01 X22.6236 Y25.6353
G01 X22.7273 Y25.5799
G01 X22.8183 Y25.5053
G01 X22.8929 Y25.4143
G01 X22.9483 Y25.3106
G01 X22.9825 Y25.1981
G01 X22.9940 Y25.0810
G00 X22.9940 Y25.0810
G01 F80.00
G01 Z-0.9000
G01 F120.00
G01 X22.9825 Y24.9639
G01 X22.9483 Y24.8514
G01 X22.8929 Y24.7477
G01 X22.8183 Y24.6567
G01 X22.7273 Y24.5821
G01 X22.6236 Y24.5267
G01 X22.5111 Y24.4925
G01 X22.3940 Y24.4810
G01 X22.2769 Y24.4925
G01 X22.1644 Y24.5267
G01 X22.0607 Y24.5821
G01 X21.9697 Y24.6567
G01 X21.8951 Y24.7477
G01 X21.8397 Y24.8514
G01 X21.8055 Y24.9639
G01 X21.7940 Y25.0810
G01 X21.8055 Y25.1981
G01 X21.8397 Y25.3106
G01 X21.8951 Y25.4143
G01 X21.9697 Y25.5053
G01 X22.0607 Y25.5799
G01 X22.1644 Y25.6353
G01 X22.2769 Y25.6695
G01 X22.3940 Y25.6810
G01 X22.5111 Y25.6695
G01 X22.6236 Y25.6353
G01 X22.7273 Y25.5799
G01 X22.8183 Y25.5053
G01 X22.8929 Y25.4143
G01 X22.9483 Y25.3106
G01 X22.9825 Y25.1981
G01 X22.9940 Y25.0810
G00 X22.9940 Y25.0810
G01 F80.00
G01 Z-1.3500
G01 F120.00
G01 X22.9825 Y24.9639
G01 X22.9483 Y24.8514
G01 X22.8929 Y24.7477
G01 X22.8183 Y24.6567
G01 X22.7273 Y24.5821
G01 X22.6236 Y24.5267
G01 X22.5111 Y24.4925
G01 X22.3940 Y24.4810
G01 X22.2769 Y24.4925
G01 X22.1644 Y24.5267
G01 X22.0607 Y24.5821
G01 X21.9697 Y24.6567
G01 X21.8951 Y24.7477
G01 X21.8397 Y24.8514
G01 X21.8055 Y24.9639
G01 X21.7940 Y25.0810
G01 X21.8055 Y25.1981
G01 X21.8397 Y25.3106
G01 X21.8951 Y25.4143
G01 X21.9697 Y25.5053
G01 X22.0607 Y25.5799
G01 X22.1644 Y25.6353
G01 X22.2769 Y25.6695
G01 X22.3940 Y25.6810
G01 X22.5111 Y25.6695
G01 X22.6236 Y25.6353
G01 X22.7273 Y25.5799
G01 X22.8183 Y25.5053
G01 X22.8929 Y25.4143
G01 X22.9483 Y25.3106
G01 X22.9825 Y25.1981
G01 X22.9940 Y25.0810
G00 X22.9940 Y25.0810
G01 F80.00
G01 Z-1.8000
G01 F120.00
G01 X22.9825 Y24.9639
G01 X22.9483 Y24.8514
G01 X22.8929 Y24.7477
G01 X22.8183 Y24.6567
G01 X22.7273 Y24.5821
G01 X22.6236 Y24.5267
G01 X22.5111 Y24.4925
G01 X22.3940 Y24.4810
G01 X22.2769 Y24.4925
G01 X22.1644 Y24.5267
G01 X22.0607 Y24.5821
G01 X21.9697 Y24.6567
G01 X21.8951 Y24.7477
G01 X21.8397 Y24.8514
G01 X21.8055 Y24.9639
G01 X21.7940 Y25.0810
G01 X21.8055 Y25.1981
G01 X21.8397 Y25.3106
G01 X21.8951 Y25.4143
G01 X21.9697 Y25.5053
G01 X22.0607 Y25.5799
G01 X22.1644 Y25.6353
G01 X22.2769 Y25.6695
G01 X22.3940 Y25.6810
G01 X22.5111 Y25.6695
G01 X22.6236 Y25.6353
G01 X22.7273 Y25.5799
G01 X22.8183 Y25.5053
G01 X22.8929 Y25.4143
G01 X22.9483 Y25.3106
G01 X22.9825 Y25.1981
G01 X22.9940 Y25.0810
G00 X22.9940 Y25.0810
G01 F80.00
G01 Z-1.9000
G01 F120.00
G01 X22.9825 Y24.9639
G01 X22.9483 Y24.8514
G01 X22.8929 Y24.7477
G01 X22.8183 Y24.6567
G01 X22.7273 Y24.5821
G01 X22.6236 Y24.5267
G01 X22.5111 Y24.4925
G01 X22.3940 Y24.4810
G01 X22.2769 Y24.4925
G01 X22.1644 Y24.5267
G01 X22.0607 Y24.5821
G01 X21.9697 Y24.6567
G01 X21.8951 Y24.7477
G01 X21.8397 Y24.8514
G01 X21.8055 Y24.9639
G01 X21.7940 Y25.0810
G01 X21.8055 Y25.1981
G01 X21.8397 Y25.3106
G01 X21.8951 Y25.4143
G01 X21.9697 Y25.5053
G01 X22.0607 Y25.5799
G01 X22.1644 Y25.6353
G01 X22.2769 Y25.6695
G01 X22.3940 Y25.6810
G01 X22.5111 Y25.6695
G01 X22.6236 Y25.6353
G01 X22.7273 Y25.5799
G01 X22.8183 Y25.5053
G01 X22.8929 Y25.4143
G01 X22.9483 Y25.3106
G01 X22.9825 Y25.1981
G01 X22.9940 Y25.0810
G00 Z2.5400
G00 X22.9940 Y43.8780
G01 F80.00
G01 Z-0.4500
G01 F120.00
G01 X22.9825 Y43.7609
G01 X22.9483 Y43.6484
G01 X22.8929 Y43.5447
G01 X22.8183 Y43.4537
G01 X22.7273 Y43.3791
G01 X22.6236 Y43.3237
G01 X22.5111 Y43.2895
G01 X22.3940 Y43.2780
G01 X22.2769 Y43.2895
G01 X22.1644 Y43.3237
G01 X22.0607 Y43.3791
G01 X21.9697 Y43.4537
G01 X21.8951 Y43.5447
G01 X21.8397 Y43.6484
G01 X21.8055 Y43.7609
G01 X21.7940 Y43.8780
G01 X21.8055 Y43.9951
G01 X21.8397 Y44.1076
G01 X21.8951 Y44.2113
G01 X21.9697 Y44.3023
G01 X22.0607 Y44.3769
G01 X22.1644 Y44.4323
G01 X22.2769 Y44.4665
G01 X22.3940 Y44.4780
G01 X22.5111 Y44.4665
G01 X22.6236 Y44.4323
G01 X22.7273 Y44.3769
G01 X22.8183 Y44.3023
G01 X22.8929 Y44.2113
G01 X22.9483 Y44.1076
G01 X22.9825 Y43.9951
G01 X22.9940 Y43.8780
G00 X22.9940 Y43.8780
G01 F80.00
G01 Z-0.9000
G01 F120.00
G01 X22.9825 Y43.7609
G01 X22.9483 Y43.6484
G01 X22.8929 Y43.5447
G01 X22.8183 Y43.4537
G01 X22.7273 Y43.3791
G01 X22.6236 Y43.3237
G01 X22.5111 Y43.2895
G01 X22.3940 Y43.2780
G01 X22.2769 Y43.2895
G01 X22.1644 Y43.3237
G01 X22.0607 Y43.3791
G01 X21.9697 Y43.4537
G01 X21.8951 Y43.5447
G01 X21.8397 Y43.6484
G01 X21.8055 Y43.7609
G01 X21.7940 Y43.8780
G01 X21.8055 Y43.9951
G01 X21.8397 Y44.1076
G01 X21.8951 Y44.2113
G01 X21.9697 Y44.3023
G01 X22.0607 Y44.3769
G01 X22.1644 Y44.4323
G01 X22.2769 Y44.4665
G01 X22.3940 Y44.4780
G01 X22.5111 Y44.4665
G01 X22.6236 Y44.4323
G01 X22.7273 Y44.3769
G01 X22.8183 Y44.3023
G01 X22.8929 Y44.2113
G01 X22.9483 Y44.1076
G01 X22.9825 Y43.9951
G01 X22.9940 Y43.8780
G00 X22.9940 Y43.8780
G01 F80.00
G01 Z-1.3500
G01 F120.00
G01 X22.9825 Y43.7609
G01 X22.9483 Y43.6484
G01 X22.8929 Y43.5447
G01 X22.8183 Y43.4537
G01 X22.7273 Y43.3791
G01 X22.6236 Y43.3237
G01 X22.5111 Y43.2895
G01 X22.3940 Y43.2780
G01 X22.2769 Y43.2895
G01 X22.1644 Y43.3237
G01 X22.0607 Y43.3791
G01 X21.9697 Y43.4537
G01 X21.8951 Y43.5447
G01 X21.8397 Y43.6484
G01 X21.8055 Y43.7609
G01 X21.7940 Y43.8780
G01 X21.8055 Y43.9951
G01 X21.8397 Y44.1076
G01 X21.8951 Y44.2113
G01 X21.9697 Y44.3023
G01 X22.0607 Y44.3769
G01 X22.1644 Y44.4323
G01 X22.2769 Y44.4665
G01 X22.3940 Y44.4780
G01 X22.5111 Y44.4665
G01 X22.6236 Y44.4323
G01 X22.7273 Y44.3769
G01 X22.8183 Y44.3023
G01 X22.8929 Y44.2113
G01 X22.9483 Y44.1076
G01 X22.9825 Y43.9951
G01 X22.9940 Y43.8780
G00 X22.9940 Y43.8780
G01 F80.00
G01 Z-1.8000
G01 F120.00
G01 X22.9825 Y43.7609
G01 X22.9483 Y43.6484
G01 X22.8929 Y43.5447
G01 X22.8183 Y43.4537
G01 X22.7273 Y43.3791
G01 X22.6236 Y43.3237
G01 X22.5111 Y43.2895
G01 X22.3940 Y43.2780
G01 X22.2769 Y43.2895
G01 X22.1644 Y43.3237
G01 X22.0607 Y43.3791
G01 X21.9697 Y43.4537
G01 X21.8951 Y43.5447
G01 X21.8397 Y43.6484
G01 X21.8055 Y43.7609
G01 X21.7940 Y43.8780
G01 X21.8055 Y43.9951
G01 X21.8397 Y44.1076
G01 X21.8951 Y44.2113
G01 X21.9697 Y44.3023
G01 X22.0607 Y44.3769
G01 X22.1644 Y44.4323
G01 X22.2769 Y44.4665
G01 X22.3940 Y44.4780
G01 X22.5111 Y44.4665
G01 X22.6236 Y44.4323
G01 X22.7273 Y44.3769
G01 X22.8183 Y44.3023
G01 X22.8929 Y44.2113
G01 X22.9483 Y44.1076
G01 X22.9825 Y43.9951
G01 X22.9940 Y43.8780
G00 X22.9940 Y43.8780
G01 F80.00
G01 Z-1.9000
G01 F120.00
G01 X22.9825 Y43.7609
G01 X22.9483 Y43.6484
G01 X22.8929 Y43.5447
G01 X22.8183 Y43.4537
G01 X22.7273 Y43.3791
G01 X22.6236 Y43.3237
G01 X22.5111 Y43.2895
G01 X22.3940 Y43.2780
G01 X22.2769 Y43.2895
G01 X22.1644 Y43.3237
G01 X22.0607 Y43.3791
G01 X21.9697 Y43.4537
G01 X21.8951 Y43.5447
G01 X21.8397 Y43.6484
G01 X21.8055 Y43.7609
G01 X21.7940 Y43.8780
G01 X21.8055 Y43.9951
G01 X21.8397 Y44.1076
G01 X21.8951 Y44.2113
G01 X21.9697 Y44.3023
G01 X22.0607 Y44.3769
G01 X22.1644 Y44.4323
G01 X22.2769 Y44.4665
G01 X22.3940 Y44.4780
G01 X22.5111 Y44.4665
G01 X22.6236 Y44.4323
G01 X22.7273 Y44.3769
G01 X22.8183 Y44.3023
G01 X22.8929 Y44.2113
G01 X22.9483 Y44.1076
G01 X22.9825 Y43.9951
G01 X22.9940 Y43.8780
G00 Z2.5400
M05
G00 Z2.5400
G00 Z12.70
G00 X0.0 Y0.0

M02