(G-CODE GENERATED BY FLATCAM v8.918 - www.flatcam.org - Version Date: 2019/06/11)

(Name: combined.gbr_iso_cnc)
(Type: G-code from Geometry)
(Units: MM)

(Created on Sunday, 16 June 2019 at 21:29)

(TOOL DIAMETER: 0.16 mm)
(Feedrate: 300.0 mm/min)
(Feedrate_Z: 120.0 mm/min)
(Feedrate rapids 76.2 mm/min)

(Z_Cut: -0.095 mm)
(Z_Move: 2.54 mm)
(Z Toolchange: 12.7 mm)
(X,Y Toolchange: 0.0000, 0.0000 mm)
(Z Start: None mm)
(Z End: 12.7 mm)
(Steps per circle: 128)
(Postprocessor Geometry: default)

(X range:   -0.1550 ...   36.7730  mm)
(Y range:   -0.1541 ...   47.2459  mm)

(Spindle Speed: 1000 RPM)

G21
G90
G94

G01 F300.00
G00 Z2.5400

M03 S1000
G00 X-0.1550 Y4.6721
G01 F120.00
G01 Z-0.0950
G01 F300.00
G01 X-0.1430 Y4.6142
G01 X-0.1096 Y4.5644
G01 X-0.0598 Y4.5310
G01 X-0.0000 Y4.5190
G01 X13.1645 Y4.5190
G01 X12.9562 Y4.1267
G01 X12.8074 Y3.7095
G01 X12.7406 Y3.4100
G01 X12.6978 Y2.9655
G01 X12.7199 Y2.5231
G01 X12.7726 Y2.2209
G01 X12.9031 Y1.7938
G01 X13.0927 Y1.3935
G01 X13.2570 Y1.1344
G01 X13.5383 Y0.7923
G01 X13.8691 Y0.4922
G01 X14.1200 Y0.3157
G01 X14.5142 Y0.1056
G01 X14.9312 Y-0.0436
G01 X15.2305 Y-0.1107
G01 X15.6770 Y-0.1541
G01 X16.1194 Y-0.1323
G01 X16.5575 Y-0.0456
G01 X16.8488 Y0.0506
G01 X17.2525 Y0.2417
G01 X17.6225 Y0.4888
G01 X17.9538 Y0.7882
G01 X18.1543 Y1.0204
G01 X18.4006 Y1.3886
G01 X18.5922 Y1.7920
G01 X18.6887 Y2.0832
G01 X18.7759 Y2.5212
G01 X18.7982 Y2.9655
G01 X18.7554 Y3.4101
G01 X18.6886 Y3.7095
G01 X18.5398 Y4.1267
G01 X18.3315 Y4.5190
G01 X29.9720 Y4.5190
G01 X30.0451 Y4.5373
G01 X30.1051 Y4.5945
G01 X30.1270 Y4.6740
G01 X30.1270 Y20.6760
G01 X30.1087 Y20.7491
G01 X30.0515 Y20.8091
G01 X29.9720 Y20.8311
G01 X19.0032 Y20.8311
G01 X19.0879 Y21.2591
G01 X19.1143 Y21.5901
G01 X19.1082 Y21.9185
G01 X19.0415 Y22.3959
G01 X18.9573 Y22.7134
G01 X18.8411 Y23.0244
G01 X18.6192 Y23.4523
G01 X18.4319 Y23.7266
G01 X18.2209 Y23.9783
G01 X17.8692 Y24.3079
G01 X17.6044 Y24.5021
G01 X17.3186 Y24.6712
G01 X16.8772 Y24.8649
G01 X16.5592 Y24.9607
G01 X16.0824 Y25.0433
G01 X15.7544 Y25.0599
G01 X15.4227 Y25.0441
G01 X14.9475 Y24.9634
G01 X14.6292 Y24.8687
G01 X14.3251 Y24.7446
G01 X13.9039 Y24.5102
G01 X13.6353 Y24.3149
G01 X13.3899 Y24.0966
G01 X13.0696 Y23.7338
G01 X12.8816 Y23.4601
G01 X12.6585 Y23.0328
G01 X12.5426 Y22.7255
G01 X12.4564 Y22.4048
G01 X12.3884 Y21.9276
G01 X12.3814 Y21.5993
G01 X12.4069 Y21.2682
G01 X12.4906 Y20.8392
G01 X-0.0001 Y20.8311
G01 X-0.0731 Y20.8128
G01 X-0.1330 Y20.7557
G01 X-0.1550 Y20.6760
G01 X-0.1550 Y4.6721
G00 Z2.5400
G00 X0.1550 Y4.8291
G01 F120.00
G01 Z-0.0950
G01 F300.00
G01 X13.5068 Y4.8225
G01 X13.5602 Y4.7940
G01 X13.5986 Y4.7473
G01 X13.6162 Y4.6897
G01 X13.6110 Y4.6312
G01 X13.3611 Y4.2434
G01 X13.1893 Y3.8788
G01 X13.0729 Y3.4931
G01 X13.0143 Y3.0944
G01 X13.0080 Y2.8257
G01 X13.0479 Y2.4247
G01 X13.1071 Y2.1625
G01 X13.2432 Y1.7832
G01 X13.4334 Y1.4279
G01 X13.6737 Y1.1044
G01 X13.9588 Y0.8197
G01 X14.2826 Y0.5798
G01 X14.6380 Y0.3899
G01 X14.8888 Y0.2933
G01 X15.2798 Y0.1954
G01 X15.6808 Y0.1560
G01 X16.0833 Y0.1757
G01 X16.4785 Y0.2543
G01 X16.8580 Y0.3899
G01 X17.2134 Y0.5798
G01 X17.5372 Y0.8197
G01 X17.7320 Y1.0049
G01 X17.9878 Y1.3162
G01 X18.1953 Y1.6617
G01 X18.3498 Y2.0339
G01 X18.4481 Y2.4247
G01 X18.4880 Y2.8257
G01 X18.4817 Y3.0944
G01 X18.4231 Y3.4931
G01 X18.3067 Y3.8789
G01 X18.1349 Y4.2434
G01 X17.8855 Y4.6295
G01 X17.8797 Y4.6893
G01 X17.8963 Y4.7454
G01 X17.9314 Y4.7903
G01 X17.9836 Y4.8207
G01 X29.8169 Y4.8291
G01 X29.8169 Y20.5210
G01 X18.7514 Y20.5276
G01 X18.6714 Y20.5838
G01 X18.6409 Y20.6764
G01 X18.7584 Y21.1558
G01 X18.7962 Y21.4498
G01 X18.7991 Y21.8943
G01 X18.7651 Y22.1888
G01 X18.6613 Y22.6209
G01 X18.5576 Y22.8986
G01 X18.4276 Y23.1650
G01 X18.2724 Y23.4176
G01 X17.9956 Y23.7653
G01 X17.7842 Y23.9732
G01 X17.5538 Y24.1596
G01 X17.1770 Y24.3954
G01 X16.7700 Y24.5740
G01 X16.4862 Y24.6594
G01 X16.0482 Y24.7350
G01 X15.7521 Y24.7498
G01 X15.3088 Y24.7181
G01 X15.0179 Y24.6614
G01 X14.5951 Y24.5242
G01 X14.3263 Y24.3992
G01 X14.0708 Y24.2488
G01 X13.7179 Y23.9787
G01 X13.5060 Y23.7714
G01 X13.2283 Y23.4244
G01 X13.0724 Y23.1723
G01 X12.8860 Y22.7688
G01 X12.7952 Y22.4866
G01 X12.7322 Y22.1969
G01 X12.6974 Y21.9025
G01 X12.6991 Y21.4581
G01 X12.7361 Y21.1640
G01 X12.8523 Y20.6844
G01 X12.8206 Y20.5904
G01 X12.7369 Y20.5344
G01 X0.1550 Y20.5211
G01 X0.1550 Y4.8291
G00 Z2.5400
G00 X0.7070 Y7.6947
G01 F120.00
G01 Z-0.0950
G01 F300.00
G01 X0.7361 Y7.5507
G01 X0.8169 Y7.4292
G01 X2.1258 Y6.1209
G01 X2.2050 Y6.0651
G01 X2.3092 Y6.0282
G01 X9.4525 Y6.0227
G01 X9.5632 Y6.0502
G01 X9.6598 Y6.1086
G01 X10.2500 Y6.6964
G01 X10.2563 Y6.5302
G01 X10.3036 Y6.4142
G01 X10.3971 Y6.3196
G01 X10.5122 Y6.2712
G01 X12.0964 Y6.2640
G01 X12.9542 Y5.4071
G01 X13.0620 Y5.3390
G01 X13.1884 Y5.3104
G01 X19.1053 Y5.3139
G01 X19.2121 Y5.3462
G01 X19.3067 Y5.4097
G01 X20.4774 Y6.5799
G01 X22.8780 Y6.5800
G01 X22.9257 Y6.5958
G01 X22.9555 Y6.6405
G01 X22.9576 Y7.2680
G01 X22.9398 Y7.3108
G01 X22.9013 Y7.3366
G01 X20.5354 Y7.3402
G01 X20.4461 Y7.4295
G01 X20.4460 Y14.2600
G01 X20.4225 Y14.3166
G01 X20.3660 Y14.3400
G01 X19.7580 Y14.3396
G01 X19.7067 Y14.3138
G01 X19.6861 Y14.2641
G01 X19.6858 Y7.2700
G01 X19.7215 Y7.1113
G01 X19.8114 Y6.9890
G01 X18.8925 Y6.0702
G01 X13.3654 Y6.0702
G01 X12.6100 Y6.8256
G01 X12.6028 Y7.9018
G01 X12.5564 Y8.0138
G01 X12.4890 Y8.0891
G01 X12.4022 Y8.1403
G01 X12.2834 Y8.1639
G01 X10.5789 Y8.1640
G01 X10.4504 Y8.1373
G01 X10.3468 Y8.0672
G01 X10.2737 Y7.9563
G01 X10.2513 Y7.8620
G01 X10.2500 Y7.5942
G01 X10.1178 Y7.5772
G01 X9.9890 Y7.5080
G01 X9.2597 Y6.7814
G01 X2.5400 Y6.7814
G01 X1.4672 Y7.8541
G01 X1.4672 Y16.7238
G01 X3.8354 Y19.0919
G01 X14.1391 Y19.0919
G01 X16.1666 Y17.0699
G01 X16.2486 Y17.0230
G01 X16.3393 Y16.9979
G01 X16.7324 Y16.9939
G01 X16.8726 Y16.7845
G01 X17.0375 Y16.6420
G01 X17.2314 Y16.5448
G01 X17.4818 Y16.4951
G01 X17.7398 Y16.5204
G01 X17.9801 Y16.6203
G01 X18.1155 Y16.7207
G01 X18.2050 Y16.8143
G01 X18.3382 Y17.0355
G01 X18.3801 Y17.1621
G01 X18.4049 Y17.3299
G01 X18.3967 Y17.5012
G01 X18.3675 Y17.6314
G01 X18.3021 Y17.7889
G01 X18.2050 Y17.9338
G01 X18.0827 Y18.0555
G01 X17.9061 Y18.1676
G01 X17.9061 Y18.3479
G01 X18.5841 Y19.0259
G01 X22.1052 Y19.0259
G01 X23.9170 Y17.2169
G01 X24.0093 Y17.1616
G01 X24.1013 Y17.1359
G01 X24.4944 Y17.1319
G01 X24.6076 Y16.9539
G01 X24.7626 Y16.8061
G01 X24.9507 Y16.6992
G01 X25.1593 Y16.6415
G01 X25.3762 Y16.6365
G01 X25.6229 Y16.6983
G01 X25.8133 Y16.8061
G01 X25.9695 Y16.9553
G01 X26.1002 Y17.1735
G01 X26.1585 Y17.3833
G01 X26.1635 Y17.6002
G01 X26.1017 Y17.8470
G01 X25.9684 Y18.0701
G01 X25.7785 Y18.2426
G01 X25.5826 Y18.3412
G01 X25.3292 Y18.3910
G01 X25.1172 Y18.3753
G01 X24.9100 Y18.3067
G01 X24.7654 Y18.2200
G01 X24.6657 Y18.1343
G01 X24.5800 Y18.0347
G01 X24.4944 Y17.8922
G01 X24.3141 Y17.8922
G01 X22.5193 Y19.6864
G01 X22.4234 Y19.7505
G01 X22.2979 Y19.7845
G01 X18.4266 Y19.7862
G01 X18.2978 Y19.7637
G01 X18.1592 Y19.6762
G01 X17.2195 Y18.7303
G01 X17.1750 Y18.6514
G01 X17.1497 Y18.5592
G01 X17.1458 Y18.1676
G01 X17.0034 Y18.0820
G01 X16.9037 Y17.9963
G01 X16.8180 Y17.8967
G01 X16.7324 Y17.7542
G01 X16.5521 Y17.7542
G01 X14.5640 Y19.7422
G01 X14.4740 Y19.8082
G01 X14.3543 Y19.8478
G01 X3.6779 Y19.8522
G01 X3.5342 Y19.8240
G01 X3.4091 Y19.7409
G01 X0.8183 Y17.1501
G01 X0.7528 Y17.0622
G01 X0.7179 Y16.9717
G01 X0.7069 Y16.8813
G01 X0.7070 Y7.6947
G00 Z2.5400
G00 X3.3100 Y7.6080
G01 F120.00
G01 Z-0.0950
G01 F300.00
G01 X3.4391 Y7.6179
G01 X3.6003 Y7.6581
G01 X3.8831 Y7.3815
G01 X3.9791 Y7.3304
G01 X4.0874 Y7.3084
G01 X7.3320 Y7.3079
G01 X7.4405 Y7.3237
G01 X7.5272 Y7.3618
G01 X7.5994 Y7.4178
G01 X9.5554 Y9.3739
G01 X10.3296 Y9.3739
G01 X10.4655 Y9.1515
G01 X10.5625 Y9.0497
G01 X10.6726 Y8.9638
G01 X10.7942 Y8.8951
G01 X10.9246 Y8.8448
G01 X11.0610 Y8.8143
G01 X11.2000 Y8.8040
G01 X11.7085 Y8.8053
G01 X11.8444 Y8.8221
G01 X11.9808 Y8.8598
G01 X12.1482 Y8.9391
G01 X12.2994 Y9.0515
G01 X12.4242 Y9.1897
G01 X12.5303 Y9.3739
G01 X12.7965 Y9.3739
G01 X14.2212 Y7.9497
G01 X14.3172 Y7.8856
G01 X14.4403 Y7.8518
G01 X17.9837 Y7.8516
G01 X18.0272 Y7.8763
G01 X18.0476 Y7.9221
G01 X18.0479 Y8.5341
G01 X18.0217 Y8.5893
G01 X17.9680 Y8.6100
G01 X14.6354 Y8.6102
G01 X13.2228 Y10.0228
G01 X13.1492 Y10.0802
G01 X12.9893 Y10.1325
G01 X12.5303 Y10.1342
G01 X12.4242 Y10.3184
G01 X12.2975 Y10.4584
G01 X12.1095 Y10.5909
G01 X11.9354 Y10.6632
G01 X11.7076 Y10.7028
G01 X11.1524 Y10.7028
G01 X11.0155 Y10.6859
G01 X10.8818 Y10.6491
G01 X10.6706 Y10.5428
G01 X10.5625 Y10.4584
G01 X10.4655 Y10.3565
G01 X10.3296 Y10.1342
G01 X9.3784 Y10.1337
G01 X9.2718 Y10.1126
G01 X9.1872 Y10.0704
G01 X7.1745 Y8.0682
G01 X4.2655 Y8.0682
G01 X4.1379 Y8.1957
G01 X4.1782 Y8.3570
G01 X4.1880 Y8.4861
G01 X4.1495 Y8.7453
G01 X4.0629 Y8.9402
G01 X3.9288 Y9.1116
G01 X3.7228 Y9.2641
G01 X3.4788 Y9.3513
G01 X3.2213 Y9.3637
G01 X2.9731 Y9.3018
G01 X2.8539 Y9.2418
G01 X2.7175 Y9.1405
G01 X2.6265 Y9.0448
G01 X2.5319 Y8.9029
G01 X2.4665 Y8.7453
G01 X2.4375 Y8.6167
G01 X2.4280 Y8.4861
G01 X2.4447 Y8.3172
G01 X2.4801 Y8.1897
G01 X2.5531 Y8.0358
G01 X2.6290 Y7.9283
G01 X2.7499 Y7.8076
G01 X2.8573 Y7.7322
G01 X3.0108 Y7.6597
G01 X3.1769 Y7.6179
G01 X3.3100 Y7.6080
G00 Z2.5400
G00 X6.5100 Y8.8381
G01 F120.00
G01 Z-0.0950
G01 F300.00
G01 X6.6816 Y8.8554
G01 X6.8825 Y8.9217
G01 X7.0333 Y9.0121
G01 X7.1605 Y9.1275
G01 X7.3026 Y9.3400
G01 X7.3712 Y9.5472
G01 X7.3868 Y9.7632
G01 X7.3379 Y10.0104
G01 X9.2414 Y11.9139
G01 X10.3296 Y11.9139
G01 X10.4655 Y11.6915
G01 X10.5625 Y11.5897
G01 X10.6706 Y11.5052
G01 X10.8818 Y11.3989
G01 X11.0155 Y11.3621
G01 X11.1524 Y11.3452
G01 X11.7076 Y11.3452
G01 X11.9376 Y11.3855
G01 X12.0679 Y11.4361
G01 X12.2243 Y11.5298
G01 X12.3331 Y11.6237
G01 X12.4442 Y11.7582
G01 X14.9726 Y9.2299
G01 X15.0591 Y9.1657
G01 X15.1476 Y9.1313
G01 X15.2400 Y9.1199
G01 X16.8205 Y9.1199
G01 X16.9820 Y9.0839
G01 X17.1437 Y9.1200
G01 X17.9875 Y9.1225
G01 X18.0272 Y9.1463
G01 X18.0476 Y9.1921
G01 X18.0476 Y9.8080
G01 X18.0217 Y9.8593
G01 X17.9721 Y9.8799
G01 X15.3974 Y9.8802
G01 X12.7134 Y12.5642
G01 X12.6269 Y12.6283
G01 X12.5350 Y12.6636
G01 X12.4222 Y12.8611
G01 X12.2611 Y13.0296
G01 X12.0658 Y13.1530
G01 X11.8444 Y13.2259
G01 X11.6619 Y13.2440
G01 X11.1088 Y13.2396
G01 X10.8781 Y13.1878
G01 X10.7521 Y13.1318
G01 X10.6357 Y13.0582
G01 X10.4644 Y12.8952
G01 X10.3296 Y12.6742
G01 X9.0673 Y12.6738
G01 X8.9031 Y12.6283
G01 X8.8152 Y12.5628
G01 X6.8003 Y10.5480
G01 X6.5521 Y10.5969
G01 X6.2961 Y10.5721
G01 X6.0914 Y10.4932
G01 X5.8871 Y10.3417
G01 X5.7319 Y10.1329
G01 X5.6447 Y9.8889
G01 X5.6323 Y9.6313
G01 X5.6952 Y9.3808
G01 X5.8276 Y9.1600
G01 X6.0195 Y8.9861
G01 X6.2529 Y8.8758
G01 X6.5100 Y8.8381
G00 Z2.5400
G00 X11.2000 Y13.8840
G01 F120.00
G01 Z-0.0950
G01 F300.00
G01 X11.7511 Y13.8884
G01 X11.8908 Y13.9125
G01 X12.0240 Y13.9566
G01 X12.1873 Y14.0438
G01 X12.3303 Y14.1609
G01 X12.4242 Y14.2697
G01 X12.5303 Y14.4539
G01 X12.5425 Y14.4539
G01 X13.6092 Y13.3872
G01 X13.5584 Y13.1944
G01 X13.5491 Y13.0094
G01 X13.5875 Y12.7880
G01 X13.6578 Y12.6176
G01 X13.7603 Y12.4645
G01 X13.9224 Y12.3102
G01 X14.0807 Y12.2151
G01 X14.2520 Y12.1539
G01 X14.4314 Y12.1272
G01 X14.6140 Y12.1360
G01 X14.7921 Y12.1807
G01 X14.9559 Y12.2582
G01 X15.1020 Y12.3665
G01 X15.2241 Y12.5009
G01 X15.3189 Y12.6588
G01 X15.3801 Y12.8301
G01 X15.4035 Y12.9644
G01 X15.4068 Y13.1026
G01 X15.3542 Y13.3675
G01 X15.2501 Y13.5743
G01 X15.0678 Y13.7751
G01 X14.8738 Y13.8976
G01 X14.6164 Y13.9757
G01 X14.3864 Y13.9815
G01 X14.1468 Y13.9248
G01 X12.9410 Y15.1280
G01 X12.8621 Y15.1779
G01 X12.7761 Y15.2065
G01 X12.5303 Y15.2142
G01 X12.4222 Y15.4011
G01 X12.2642 Y15.5671
G01 X12.1061 Y15.6728
G01 X11.8908 Y15.7556
G01 X11.7046 Y15.7830
G01 X11.1553 Y15.7830
G01 X11.0155 Y15.7659
G01 X10.8781 Y15.7278
G01 X10.6738 Y15.6250
G01 X10.5282 Y15.5058
G01 X10.4090 Y15.3602
G01 X10.3058 Y15.1549
G01 X10.2546 Y14.9276
G01 X10.2600 Y14.6966
G01 X10.3062 Y14.5121
G01 X10.4112 Y14.3046
G01 X10.5625 Y14.1297
G01 X10.7521 Y13.9962
G01 X10.9692 Y13.9125
G01 X11.2000 Y13.8840
G00 Z2.5400
G00 X16.0639 Y10.3901
G01 F120.00
G01 Z-0.0950
G01 F300.00
G01 X18.6072 Y10.3919
G01 X18.7116 Y10.4181
G01 X18.7956 Y10.4655
G01 X19.0911 Y10.7584
G01 X19.1536 Y10.8692
G01 X19.1761 Y10.9961
G01 X19.1760 Y14.2600
G01 X19.1467 Y14.3219
G01 X19.1001 Y14.3399
G01 X18.4919 Y14.3399
G01 X18.4452 Y14.3219
G01 X18.4184 Y14.2796
G01 X18.4158 Y11.1555
G01 X16.0447 Y11.1466
G01 X16.0061 Y11.1208
G01 X15.9884 Y11.0780
G01 X15.9880 Y10.4700
G01 X16.0087 Y10.4163
G01 X16.0639 Y10.3901
G00 Z2.5400
G00 X16.0639 Y6.5801
G01 F120.00
G01 Z-0.0950
G01 F300.00
G01 X17.9950 Y6.5847
G01 X18.0322 Y6.6124
G01 X18.0479 Y6.6560
G01 X18.0433 Y7.2871
G01 X18.0125 Y7.3265
G01 X17.9680 Y7.3400
G01 X16.0409 Y7.3353
G01 X16.0061 Y7.3108
G01 X15.9884 Y7.2680
G01 X15.9881 Y6.6560
G01 X16.0114 Y6.6035
G01 X16.0639 Y6.5801
G00 Z2.5400
G00 X20.9739 Y7.8501
G01 F120.00
G01 Z-0.0950
G01 F300.00
G01 X22.8305 Y7.8499
G01 X23.0978 Y7.5826
G01 X23.1019 Y7.0161
G01 X23.1418 Y6.8940
G01 X23.2109 Y6.8009
G01 X23.1674 Y6.6503
G01 X23.1497 Y6.4697
G01 X23.1672 Y6.2902
G01 X23.2047 Y6.1546
G01 X23.2819 Y5.9918
G01 X23.3902 Y5.8457
G01 X23.5246 Y5.7236
G01 X23.6838 Y5.6282
G01 X23.8537 Y5.5676
G01 X24.0331 Y5.5409
G01 X24.2157 Y5.5497
G01 X24.3938 Y5.5944
G01 X24.5576 Y5.6719
G01 X24.7038 Y5.7802
G01 X24.8258 Y5.9146
G01 X24.9212 Y6.0739
G01 X24.9993 Y6.3313
G01 X25.0052 Y6.5613
G01 X24.9546 Y6.7849
G01 X24.8278 Y7.0221
G01 X24.7373 Y7.1273
G01 X24.6348 Y7.2159
G01 X24.5181 Y7.2899
G01 X24.3938 Y7.3451
G01 X24.2603 Y7.3820
G01 X24.1263 Y7.3986
G01 X23.8581 Y7.3729
G01 X23.8563 Y7.7777
G01 X23.8042 Y7.9353
G01 X23.7482 Y8.0074
G01 X23.2554 Y8.5002
G01 X23.1487 Y8.5745
G01 X22.9900 Y8.6102
G01 X20.9509 Y8.6053
G01 X20.9161 Y8.5808
G01 X20.8984 Y8.5380
G01 X20.8981 Y7.9260
G01 X20.9214 Y7.8735
G01 X20.9739 Y7.8501
G00 Z2.5400
G00 X18.7219 Y16.4941
G01 F120.00
G01 Z-0.0950
G01 F300.00
G01 X20.3493 Y16.4975
G01 X20.3878 Y16.5233
G01 X20.4056 Y16.5661
G01 X20.4060 Y16.9939
G01 X22.3405 Y16.9939
G01 X28.6038 Y10.7306
G01 X28.6038 Y8.6695
G01 X27.5685 Y7.6342
G01 X25.5034 Y7.6342
G01 X25.0181 Y8.1195
G01 X25.0181 Y8.4820
G01 X25.4960 Y8.4824
G01 X25.5417 Y8.5028
G01 X25.5664 Y8.5463
G01 X25.5679 Y10.2661
G01 X25.5498 Y10.3128
G01 X25.5075 Y10.3396
G01 X23.7684 Y10.3396
G01 X23.7287 Y10.3158
G01 X23.7089 Y10.2739
G01 X23.7080 Y9.8802
G01 X20.9584 Y9.8776
G01 X20.9161 Y9.8508
G01 X20.8981 Y9.8041
G01 X20.8981 Y9.1960
G01 X20.9303 Y9.1358
G01 X20.9780 Y9.1200
G01 X23.7080 Y9.1199
G01 X23.7081 Y8.5579
G01 X23.7237 Y8.5143
G01 X23.7839 Y8.4821
G01 X24.2578 Y8.4820
G01 X24.2595 Y7.9267
G01 X24.2803 Y7.8332
G01 X24.3216 Y7.7513
G01 X25.0912 Y6.9719
G01 X25.1987 Y6.9036
G01 X25.3083 Y6.8758
G01 X27.7260 Y6.8739
G01 X27.8540 Y6.8961
G01 X27.9934 Y6.9839
G01 X29.2881 Y8.2840
G01 X29.3426 Y8.3858
G01 X29.3641 Y8.5120
G01 X29.3638 Y10.9047
G01 X29.3426 Y11.0143
G01 X29.2990 Y11.1009
G01 X22.7260 Y17.6782
G01 X22.6260 Y17.7320
G01 X22.5147 Y17.7538
G01 X20.4060 Y17.7542
G01 X20.4056 Y18.1820
G01 X20.3878 Y18.2248
G01 X20.3493 Y18.2506
G01 X18.7027 Y18.2506
G01 X18.6618 Y18.2217
G01 X18.6461 Y18.1781
G01 X18.6460 Y16.5740
G01 X18.6667 Y16.5203
G01 X18.7219 Y16.4941
G00 Z2.5400
G00 X22.7099 Y28.7661
G01 F120.00
G01 Z-0.0950
G01 F300.00
G01 X24.6410 Y28.7707
G01 X24.6782 Y28.7983
G01 X24.6939 Y28.8419
G01 X24.6893 Y29.4730
G01 X24.6585 Y29.5125
G01 X24.6140 Y29.5260
G01 X22.6869 Y29.5213
G01 X22.6522 Y29.4968
G01 X22.6344 Y29.4540
G01 X22.6341 Y28.8419
G01 X22.6574 Y28.7894
G01 X22.7099 Y28.7661
G00 Z2.5400
G00 X22.6341 Y33.2601
G01 F120.00
G01 Z-0.0950
G01 F300.00
G01 X22.6344 Y32.6480
G01 X22.6574 Y32.5994
G01 X22.7060 Y32.5764
G01 X25.2517 Y32.5777
G01 X25.3439 Y32.5987
G01 X25.4389 Y32.6495
G01 X25.7108 Y32.9152
G01 X25.7930 Y33.0380
G01 X25.8221 Y33.1820
G01 X25.8220 Y36.4460
G01 X25.7986 Y36.5026
G01 X25.7461 Y36.5259
G01 X25.1379 Y36.5259
G01 X25.0912 Y36.5078
G01 X25.0644 Y36.4655
G01 X25.0618 Y33.3414
G01 X22.7099 Y33.3359
G01 X22.6574 Y33.3126
G01 X22.6341 Y33.2601
G00 Z2.5400
G00 X17.8460 Y36.0700
G01 F120.00
G01 Z-0.0950
G01 F300.00
G01 X18.3971 Y36.0744
G01 X18.5368 Y36.0985
G01 X18.6700 Y36.1425
G01 X18.8333 Y36.2298
G01 X18.9763 Y36.3469
G01 X19.0702 Y36.4557
G01 X19.1763 Y36.6398
G01 X19.1885 Y36.6398
G01 X20.2552 Y35.5732
G01 X20.2044 Y35.3804
G01 X20.1952 Y35.1954
G01 X20.2335 Y34.9739
G01 X20.3038 Y34.8036
G01 X20.4064 Y34.6505
G01 X20.5684 Y34.4962
G01 X20.7267 Y34.4011
G01 X20.8981 Y34.3399
G01 X21.0774 Y34.3132
G01 X21.2600 Y34.3220
G01 X21.4381 Y34.3666
G01 X21.6019 Y34.4442
G01 X21.7481 Y34.5525
G01 X21.8701 Y34.6869
G01 X21.9649 Y34.8447
G01 X22.0261 Y35.0161
G01 X22.0495 Y35.1504
G01 X22.0528 Y35.2886
G01 X22.0003 Y35.5534
G01 X21.8961 Y35.7603
G01 X21.7138 Y35.9610
G01 X21.5198 Y36.0835
G01 X21.2624 Y36.1616
G01 X21.0324 Y36.1675
G01 X20.7928 Y36.1108
G01 X19.5870 Y37.3140
G01 X19.5081 Y37.3638
G01 X19.4221 Y37.3924
G01 X19.1763 Y37.4001
G01 X19.0682 Y37.5870
G01 X18.9102 Y37.7531
G01 X18.7521 Y37.8587
G01 X18.5368 Y37.9415
G01 X18.3506 Y37.9689
G01 X17.8013 Y37.9689
G01 X17.6615 Y37.9519
G01 X17.5241 Y37.9138
G01 X17.3198 Y37.8110
G01 X17.1742 Y37.6917
G01 X17.0550 Y37.5461
G01 X16.9518 Y37.3408
G01 X16.9006 Y37.1136
G01 X16.9060 Y36.8825
G01 X16.9522 Y36.6981
G01 X17.0572 Y36.4906
G01 X17.2085 Y36.3157
G01 X17.3981 Y36.1822
G01 X17.6152 Y36.0985
G01 X17.8460 Y36.0700
G00 Z2.5400
G00 X13.1559 Y31.0240
G01 F120.00
G01 Z-0.0950
G01 F300.00
G01 X13.3276 Y31.0413
G01 X13.5284 Y31.1076
G01 X13.6793 Y31.1980
G01 X13.8064 Y31.3135
G01 X13.9486 Y31.5260
G01 X14.0172 Y31.7332
G01 X14.0328 Y31.9491
G01 X13.9839 Y32.1963
G01 X15.8875 Y34.0998
G01 X16.9756 Y34.0998
G01 X17.1115 Y33.8775
G01 X17.2085 Y33.7757
G01 X17.3166 Y33.6912
G01 X17.5278 Y33.5849
G01 X17.6615 Y33.5481
G01 X17.7984 Y33.5312
G01 X18.3536 Y33.5312
G01 X18.5836 Y33.5715
G01 X18.7139 Y33.6221
G01 X18.8703 Y33.7158
G01 X18.9791 Y33.8096
G01 X19.0902 Y33.9441
G01 X21.6186 Y31.4158
G01 X21.7051 Y31.3517
G01 X21.7937 Y31.3172
G01 X21.8860 Y31.3058
G01 X23.4665 Y31.3058
G01 X23.6281 Y31.2698
G01 X23.7898 Y31.3060
G01 X24.6335 Y31.3084
G01 X24.6733 Y31.3323
G01 X24.6936 Y31.3780
G01 X24.6936 Y31.9940
G01 X24.6677 Y32.0453
G01 X24.6181 Y32.0659
G01 X22.0434 Y32.0661
G01 X19.3594 Y34.7502
G01 X19.2729 Y34.8143
G01 X19.1810 Y34.8495
G01 X19.0682 Y35.0470
G01 X18.9071 Y35.2156
G01 X18.7118 Y35.3390
G01 X18.4905 Y35.4119
G01 X18.3079 Y35.4300
G01 X17.7548 Y35.4256
G01 X17.5241 Y35.3738
G01 X17.3981 Y35.3178
G01 X17.2817 Y35.2442
G01 X17.1104 Y35.0811
G01 X16.9756 Y34.8601
G01 X15.7133 Y34.8598
G01 X15.5491 Y34.8143
G01 X15.4612 Y34.7488
G01 X13.4463 Y32.7339
G01 X13.1981 Y32.7829
G01 X12.9421 Y32.7581
G01 X12.7374 Y32.6791
G01 X12.5331 Y32.5276
G01 X12.3779 Y32.3188
G01 X12.2907 Y32.0748
G01 X12.2783 Y31.8173
G01 X12.3412 Y31.5667
G01 X12.4736 Y31.3459
G01 X12.6655 Y31.1720
G01 X12.8989 Y31.0618
G01 X13.1559 Y31.0240
G00 Z2.5400
G00 X9.9559 Y29.7940
G01 F120.00
G01 Z-0.0950
G01 F300.00
G01 X10.0850 Y29.8038
G01 X10.2463 Y29.8440
G01 X10.5291 Y29.5675
G01 X10.6251 Y29.5163
G01 X10.7334 Y29.4944
G01 X13.9780 Y29.4938
G01 X14.0865 Y29.5097
G01 X14.1732 Y29.5478
G01 X14.2454 Y29.6038
G01 X16.2015 Y31.5598
G01 X16.9756 Y31.5598
G01 X17.1115 Y31.3375
G01 X17.2085 Y31.2357
G01 X17.3186 Y31.1498
G01 X17.4402 Y31.0810
G01 X17.5706 Y31.0308
G01 X17.7070 Y31.0002
G01 X17.8460 Y30.9900
G01 X18.3546 Y30.9913
G01 X18.4905 Y31.0081
G01 X18.6268 Y31.0458
G01 X18.7942 Y31.1250
G01 X18.9454 Y31.2374
G01 X19.0702 Y31.3757
G01 X19.1763 Y31.5598
G01 X19.4425 Y31.5598
G01 X20.8673 Y30.1357
G01 X20.9632 Y30.0715
G01 X21.0863 Y30.0377
G01 X24.6297 Y30.0376
G01 X24.6733 Y30.0623
G01 X24.6936 Y30.1080
G01 X24.6939 Y30.7201
G01 X24.6677 Y30.7753
G01 X24.6140 Y30.7960
G01 X21.2814 Y30.7961
G01 X19.8688 Y32.2088
G01 X19.7952 Y32.2662
G01 X19.6353 Y32.3185
G01 X19.1763 Y32.3201
G01 X19.0702 Y32.5043
G01 X18.9435 Y32.6443
G01 X18.7555 Y32.7769
G01 X18.5814 Y32.8492
G01 X18.3536 Y32.8888
G01 X17.7984 Y32.8888
G01 X17.6615 Y32.8719
G01 X17.5278 Y32.8351
G01 X17.3166 Y32.7288
G01 X17.2085 Y32.6443
G01 X17.1115 Y32.5425
G01 X16.9756 Y32.3201
G01 X16.0244 Y32.3196
G01 X15.9178 Y32.2986
G01 X15.8332 Y32.2564
G01 X13.8205 Y30.2541
G01 X10.9114 Y30.2541
G01 X10.7839 Y30.3816
G01 X10.8241 Y30.5429
G01 X10.8340 Y30.6720
G01 X10.7955 Y30.9313
G01 X10.7089 Y31.1262
G01 X10.5748 Y31.2976
G01 X10.3688 Y31.4501
G01 X10.1248 Y31.5372
G01 X9.8673 Y31.5497
G01 X9.6190 Y31.4877
G01 X9.4999 Y31.4278
G01 X9.3635 Y31.3264
G01 X9.2725 Y31.2307
G01 X9.1779 Y31.0888
G01 X9.1125 Y30.9313
G01 X9.0834 Y30.8027
G01 X9.0740 Y30.6720
G01 X9.0907 Y30.5032
G01 X9.1261 Y30.3757
G01 X9.1991 Y30.2218
G01 X9.2750 Y30.1142
G01 X9.3959 Y29.9936
G01 X9.5033 Y29.9182
G01 X9.6567 Y29.8457
G01 X9.8229 Y29.8038
G01 X9.9559 Y29.7940
G00 Z2.5400
G00 X7.3530 Y29.8806
G01 F120.00
G01 Z-0.0950
G01 F300.00
G01 X7.3821 Y29.7366
G01 X7.4629 Y29.6152
G01 X8.7718 Y28.3069
G01 X8.8510 Y28.2510
G01 X8.9552 Y28.2142
G01 X16.0985 Y28.2087
G01 X16.2092 Y28.2362
G01 X16.3059 Y28.2946
G01 X16.8960 Y28.8824
G01 X16.9023 Y28.7163
G01 X16.9496 Y28.6002
G01 X17.0428 Y28.5058
G01 X17.1582 Y28.4572
G01 X18.7424 Y28.4500
G01 X19.6002 Y27.5930
G01 X19.7080 Y27.5250
G01 X19.8344 Y27.4964
G01 X25.7513 Y27.4999
G01 X25.8581 Y27.5322
G01 X25.9527 Y27.5957
G01 X27.1234 Y28.7658
G01 X29.5240 Y28.7660
G01 X29.5717 Y28.7818
G01 X29.6016 Y28.8264
G01 X29.6036 Y29.4540
G01 X29.5858 Y29.4968
G01 X29.5473 Y29.5225
G01 X27.1815 Y29.5261
G01 X27.0921 Y29.6155
G01 X27.0920 Y36.4460
G01 X27.0686 Y36.5026
G01 X27.0120 Y36.5260
G01 X26.4040 Y36.5256
G01 X26.3527 Y36.4997
G01 X26.3321 Y36.4501
G01 X26.3319 Y29.4560
G01 X26.3675 Y29.2972
G01 X26.4574 Y29.1750
G01 X25.5385 Y28.2561
G01 X20.0114 Y28.2561
G01 X19.2560 Y29.0116
G01 X19.2488 Y30.0878
G01 X19.2024 Y30.1997
G01 X19.1351 Y30.2750
G01 X19.0483 Y30.3262
G01 X18.9294 Y30.3499
G01 X17.2250 Y30.3500
G01 X17.0964 Y30.3232
G01 X16.9924 Y30.2528
G01 X16.9197 Y30.1423
G01 X16.8973 Y30.0479
G01 X16.8960 Y29.7801
G01 X16.7638 Y29.7632
G01 X16.6350 Y29.6940
G01 X15.9057 Y28.9673
G01 X9.1860 Y28.9673
G01 X8.1133 Y30.0401
G01 X8.1133 Y38.9098
G01 X10.4814 Y41.2779
G01 X20.7851 Y41.2779
G01 X22.8126 Y39.2558
G01 X22.8946 Y39.2090
G01 X22.9853 Y39.1839
G01 X23.3784 Y39.1798
G01 X23.5186 Y38.9705
G01 X23.6835 Y38.8280
G01 X23.8774 Y38.7308
G01 X24.1278 Y38.6811
G01 X24.3858 Y38.7064
G01 X24.6261 Y38.8062
G01 X24.7615 Y38.9067
G01 X24.8510 Y39.0002
G01 X24.9842 Y39.2214
G01 X25.0261 Y39.3481
G01 X25.0509 Y39.5158
G01 X25.0427 Y39.6872
G01 X25.0135 Y39.8173
G01 X24.9481 Y39.9748
G01 X24.8510 Y40.1198
G01 X24.7287 Y40.2415
G01 X24.5521 Y40.3536
G01 X24.5521 Y40.5339
G01 X25.2301 Y41.2118
G01 X28.7512 Y41.2118
G01 X30.5630 Y39.4029
G01 X30.6553 Y39.3476
G01 X30.7468 Y39.3220
G01 X31.1404 Y39.3178
G01 X31.2536 Y39.1399
G01 X31.4087 Y38.9920
G01 X31.5967 Y38.8852
G01 X31.8053 Y38.8275
G01 X32.0222 Y38.8224
G01 X32.2689 Y38.8842
G01 X32.4593 Y38.9920
G01 X32.6155 Y39.1413
G01 X32.7462 Y39.3594
G01 X32.8045 Y39.5693
G01 X32.8095 Y39.7862
G01 X32.7477 Y40.0329
G01 X32.6144 Y40.2561
G01 X32.4245 Y40.4286
G01 X32.2286 Y40.5272
G01 X31.9752 Y40.5770
G01 X31.7632 Y40.5612
G01 X31.5560 Y40.4926
G01 X31.4114 Y40.4060
G01 X31.3117 Y40.3202
G01 X31.2260 Y40.2206
G01 X31.1404 Y40.0781
G01 X30.9601 Y40.0781
G01 X29.1654 Y41.8723
G01 X29.0694 Y41.9365
G01 X28.9459 Y41.9703
G01 X25.0726 Y41.9721
G01 X24.9438 Y41.9496
G01 X24.8052 Y41.8622
G01 X23.8655 Y40.9162
G01 X23.8210 Y40.8373
G01 X23.7957 Y40.7452
G01 X23.7918 Y40.3536
G01 X23.6494 Y40.2680
G01 X23.5497 Y40.1822
G01 X23.4640 Y40.0826
G01 X23.3784 Y39.9401
G01 X23.1981 Y39.9401
G01 X21.2100 Y41.9282
G01 X21.1200 Y41.9942
G01 X21.0003 Y42.0338
G01 X10.3239 Y42.0382
G01 X10.1803 Y42.0100
G01 X10.0551 Y41.9268
G01 X7.4643 Y39.3360
G01 X7.3988 Y39.2482
G01 X7.3639 Y39.1577
G01 X7.3530 Y39.0672
G01 X7.3530 Y29.8806
G00 Z2.5400
G00 X6.8010 Y27.0150
G01 F120.00
G01 Z-0.0950
G01 F300.00
G01 X20.1528 Y27.0084
G01 X20.2062 Y26.9800
G01 X20.2446 Y26.9333
G01 X20.2622 Y26.8756
G01 X20.2570 Y26.8172
G01 X20.0071 Y26.4293
G01 X19.8353 Y26.0648
G01 X19.7189 Y25.6790
G01 X19.6603 Y25.2803
G01 X19.6540 Y25.0116
G01 X19.6939 Y24.6106
G01 X19.7531 Y24.3484
G01 X19.8892 Y23.9691
G01 X20.0794 Y23.6139
G01 X20.3197 Y23.2904
G01 X20.6048 Y23.0056
G01 X20.9286 Y22.7657
G01 X21.2841 Y22.5759
G01 X21.5349 Y22.4792
G01 X21.9258 Y22.3814
G01 X22.3268 Y22.3419
G01 X22.7293 Y22.3617
G01 X23.1245 Y22.4402
G01 X23.5040 Y22.5759
G01 X23.8595 Y22.7657
G01 X24.1832 Y23.0056
G01 X24.3780 Y23.1909
G01 X24.6338 Y23.5022
G01 X24.8413 Y23.8477
G01 X24.9958 Y24.2199
G01 X25.0941 Y24.6107
G01 X25.1340 Y25.0116
G01 X25.1278 Y25.2804
G01 X25.0691 Y25.6790
G01 X24.9527 Y26.0648
G01 X24.7809 Y26.4294
G01 X24.5315 Y26.8155
G01 X24.5257 Y26.8752
G01 X24.5424 Y26.9313
G01 X24.5774 Y26.9762
G01 X24.6296 Y27.0066
G01 X36.4629 Y27.0150
G01 X36.4629 Y42.7070
G01 X25.3974 Y42.7135
G01 X25.3174 Y42.7697
G01 X25.2869 Y42.8623
G01 X25.4044 Y43.3418
G01 X25.4422 Y43.6358
G01 X25.4451 Y44.0802
G01 X25.4112 Y44.3747
G01 X25.3073 Y44.8069
G01 X25.2036 Y45.0846
G01 X25.0736 Y45.3510
G01 X24.9184 Y45.6035
G01 X24.6416 Y45.9513
G01 X24.4303 Y46.1591
G01 X24.1998 Y46.3456
G01 X23.8230 Y46.5813
G01 X23.4160 Y46.7599
G01 X23.1322 Y46.8453
G01 X22.6942 Y46.9210
G01 X22.3981 Y46.9358
G01 X21.9548 Y46.9041
G01 X21.6639 Y46.8473
G01 X21.2411 Y46.7101
G01 X20.9723 Y46.5852
G01 X20.7168 Y46.4348
G01 X20.3639 Y46.1647
G01 X20.1520 Y45.9573
G01 X19.8743 Y45.6104
G01 X19.7184 Y45.3583
G01 X19.5321 Y44.9548
G01 X19.4412 Y44.6726
G01 X19.3782 Y44.3829
G01 X19.3435 Y44.0885
G01 X19.3452 Y43.6441
G01 X19.3821 Y43.3499
G01 X19.4983 Y42.8704
G01 X19.4666 Y42.7764
G01 X19.3829 Y42.7204
G01 X6.8010 Y42.7071
G01 X6.8010 Y27.0150
G00 Z2.5400
G00 X6.4910 Y26.8580
G01 F120.00
G01 Z-0.0950
G01 F300.00
G01 X6.5030 Y26.8002
G01 X6.5364 Y26.7504
G01 X6.5862 Y26.7170
G01 X6.6460 Y26.7050
G01 X19.8105 Y26.7050
G01 X19.6022 Y26.3126
G01 X19.4534 Y25.8954
G01 X19.3866 Y25.5960
G01 X19.3438 Y25.1515
G01 X19.3659 Y24.7091
G01 X19.4186 Y24.4069
G01 X19.5491 Y23.9797
G01 X19.7387 Y23.5794
G01 X19.9030 Y23.3203
G01 X20.1843 Y22.9782
G01 X20.5151 Y22.6782
G01 X20.7660 Y22.5016
G01 X21.1602 Y22.2916
G01 X21.5772 Y22.1424
G01 X21.8765 Y22.0752
G01 X22.3230 Y22.0318
G01 X22.7654 Y22.0537
G01 X23.2035 Y22.1404
G01 X23.4948 Y22.2365
G01 X23.8985 Y22.4277
G01 X24.2685 Y22.6747
G01 X24.5998 Y22.9742
G01 X24.8004 Y23.2063
G01 X25.0466 Y23.5745
G01 X25.2382 Y23.9779
G01 X25.3347 Y24.2691
G01 X25.4219 Y24.7072
G01 X25.4442 Y25.1515
G01 X25.4014 Y25.5960
G01 X25.3346 Y25.8955
G01 X25.1858 Y26.3127
G01 X24.9775 Y26.7050
G01 X36.6180 Y26.7050
G01 X36.6911 Y26.7233
G01 X36.7511 Y26.7805
G01 X36.7730 Y26.8600
G01 X36.7730 Y42.8620
G01 X36.7547 Y42.9351
G01 X36.6975 Y42.9951
G01 X36.6180 Y43.0170
G01 X25.6492 Y43.0170
G01 X25.7339 Y43.4451
G01 X25.7603 Y43.7761
G01 X25.7542 Y44.1045
G01 X25.6875 Y44.5819
G01 X25.6033 Y44.8993
G01 X25.4871 Y45.2104
G01 X25.2652 Y45.6383
G01 X25.0779 Y45.9125
G01 X24.8669 Y46.1643
G01 X24.5152 Y46.4939
G01 X24.2504 Y46.6881
G01 X23.9646 Y46.8572
G01 X23.5232 Y47.0509
G01 X23.2053 Y47.1467
G01 X22.7284 Y47.2292
G01 X22.4004 Y47.2459
G01 X22.0687 Y47.2301
G01 X21.5935 Y47.1493
G01 X21.2752 Y47.0546
G01 X20.9711 Y46.9305
G01 X20.5499 Y46.6961
G01 X20.2813 Y46.5008
G01 X20.0359 Y46.2826
G01 X19.7156 Y45.9198
G01 X19.5276 Y45.6461
G01 X19.3045 Y45.2188
G01 X19.1886 Y44.9115
G01 X19.1024 Y44.5908
G01 X19.0344 Y44.1136
G01 X19.0274 Y43.7852
G01 X19.0529 Y43.4542
G01 X19.1367 Y43.0252
G01 X6.6459 Y43.0170
G01 X6.5729 Y42.9987
G01 X6.5130 Y42.9417
G01 X6.4909 Y42.8620
G01 X6.4910 Y26.8580
G00 Z2.5400
G00 X3.9178 Y16.7422
G01 F120.00
G01 Z-0.0950
G01 F300.00
G01 X3.7964 Y16.8400
G01 X3.6429 Y16.9218
G01 X3.4788 Y16.9713
G01 X3.3080 Y16.9880
G01 X3.1372 Y16.9713
G01 X2.9707 Y16.9208
G01 X2.8195 Y16.8400
G01 X2.6857 Y16.7303
G01 X2.5760 Y16.5965
G01 X2.4952 Y16.4453
G01 X2.4447 Y16.2788
G01 X2.4280 Y16.1080
G01 X2.4447 Y15.9372
G01 X2.4952 Y15.7708
G01 X2.5760 Y15.6196
G01 X2.6857 Y15.4858
G01 X2.8914 Y15.3329
G01 X3.0942 Y15.2544
G01 X3.3492 Y15.2290
G01 X3.5653 Y15.2665
G01 X3.7964 Y15.3760
G01 X3.9870 Y15.5483
G01 X4.1202 Y15.7695
G01 X4.1789 Y15.9819
G01 X5.2800 Y15.9819
G01 X5.3902 Y15.9988
G01 X5.5333 Y16.0803
G01 X6.0441 Y16.5905
G01 X6.2107 Y16.5098
G01 X6.3808 Y16.4673
G01 X6.5923 Y16.4621
G01 X6.7653 Y16.4965
G01 X6.9587 Y16.5823
G01 X7.0985 Y16.6856
G01 X7.2160 Y16.8154
G01 X7.3177 Y16.9939
G01 X10.3296 Y16.9939
G01 X10.4655 Y16.7715
G01 X10.5625 Y16.6697
G01 X10.6726 Y16.5838
G01 X10.7942 Y16.5151
G01 X10.9246 Y16.4648
G01 X11.0610 Y16.4343
G01 X11.2000 Y16.4240
G01 X11.7511 Y16.4284
G01 X11.8908 Y16.4525
G01 X12.0240 Y16.4966
G01 X12.1873 Y16.5838
G01 X12.3317 Y16.7023
G01 X12.4502 Y16.8467
G01 X12.5303 Y16.9939
G01 X14.0665 Y16.9939
G01 X14.6058 Y16.4546
G01 X14.6062 Y14.9333
G01 X14.6228 Y14.8378
G01 X14.6696 Y14.7393
G01 X16.4011 Y13.0035
G01 X16.4961 Y12.9528
G01 X16.5883 Y12.9318
G01 X17.1460 Y12.9299
G01 X17.1464 Y12.3521
G01 X17.1694 Y12.3035
G01 X17.2180 Y12.2804
G01 X17.8301 Y12.2801
G01 X17.8737 Y12.2958
G01 X17.8999 Y12.3293
G01 X17.9061 Y14.7026
G01 X18.4374 Y15.2339
G01 X22.0285 Y15.2339
G01 X23.1874 Y14.0750
G01 X21.6592 Y12.5468
G01 X21.6029 Y12.4751
G01 X21.5641 Y12.3880
G01 X21.5482 Y12.2947
G01 X21.5478 Y11.1500
G01 X20.9739 Y11.1499
G01 X20.9161 Y11.1208
G01 X20.8981 Y11.0741
G01 X20.8980 Y10.4700
G01 X20.9214 Y10.4135
G01 X20.9780 Y10.3900
G01 X22.8780 Y10.3900
G01 X22.9372 Y10.4163
G01 X22.9580 Y10.4700
G01 X22.9579 Y11.0741
G01 X22.9398 Y11.1208
G01 X22.8820 Y11.1499
G01 X22.3081 Y11.1500
G01 X22.3081 Y12.1206
G01 X23.7250 Y13.5374
G01 X24.4580 Y12.8044
G01 X24.4091 Y12.5562
G01 X24.4339 Y12.3001
G01 X24.5128 Y12.0955
G01 X24.6657 Y11.8898
G01 X24.8714 Y11.7369
G01 X25.0761 Y11.6580
G01 X25.3321 Y11.6332
G01 X25.5803 Y11.6821
G01 X26.7978 Y10.4646
G01 X26.7978 Y10.2605
G01 X26.5882 Y10.1311
G01 X26.4318 Y9.9671
G01 X26.3190 Y9.7684
G01 X26.2584 Y9.5504
G01 X26.2492 Y9.3644
G01 X26.2886 Y9.1402
G01 X26.3802 Y8.9341
G01 X26.5204 Y8.7544
G01 X26.7001 Y8.6142
G01 X26.9099 Y8.5215
G01 X27.1760 Y8.4820
G01 X27.4039 Y8.5099
G01 X27.6164 Y8.5918
G01 X27.8040 Y8.7243
G01 X27.9746 Y8.9322
G01 X28.0673 Y9.1402
G01 X28.0980 Y9.2760
G01 X28.1080 Y9.4140
G01 X28.0905 Y9.5915
G01 X28.0542 Y9.7235
G01 X27.9758 Y9.8899
G01 X27.8657 Y10.0380
G01 X27.7304 Y10.1602
G01 X27.5581 Y10.2605
G01 X27.5565 Y10.6573
G01 X27.5132 Y10.8012
G01 X27.4468 Y10.8908
G01 X26.1179 Y12.2197
G01 X26.1668 Y12.4669
G01 X26.1514 Y12.6818
G01 X26.0837 Y12.8879
G01 X25.9670 Y13.0718
G01 X25.7764 Y13.2440
G01 X25.5416 Y13.3547
G01 X25.2860 Y13.3920
G01 X25.1569 Y13.3822
G01 X24.9956 Y13.3420
G01 X22.4548 Y15.8829
G01 X22.3814 Y15.9401
G01 X22.2963 Y15.9778
G01 X22.1860 Y15.9942
G01 X18.2800 Y15.9942
G01 X18.1345 Y15.9653
G01 X18.0126 Y15.8842
G01 X17.2572 Y15.1288
G01 X17.1998 Y15.0552
G01 X17.1622 Y14.9704
G01 X17.1463 Y14.8787
G01 X17.1458 Y13.6902
G01 X16.7834 Y13.6902
G01 X15.3661 Y15.1075
G01 X15.3661 Y16.6140
G01 X15.3379 Y16.7557
G01 X15.2562 Y16.8794
G01 X14.4914 Y17.6442
G01 X14.4049 Y17.7083
G01 X14.3144 Y17.7432
G01 X14.2240 Y17.7542
G01 X12.5303 Y17.7542
G01 X12.3945 Y17.9765
G01 X12.2975 Y18.0784
G01 X12.1894 Y18.1628
G01 X11.9782 Y18.2691
G01 X11.8444 Y18.3059
G01 X11.7076 Y18.3228
G01 X11.1088 Y18.3196
G01 X10.9692 Y18.2956
G01 X10.8359 Y18.2515
G01 X10.6726 Y18.1642
G01 X10.5282 Y18.0458
G01 X10.4098 Y17.9014
G01 X10.3296 Y17.7542
G01 X7.2834 Y17.7542
G01 X7.1302 Y17.9603
G01 X6.9228 Y18.1141
G01 X6.6788 Y18.2013
G01 X6.4213 Y18.2138
G01 X6.2529 Y18.1803
G01 X6.0949 Y18.1150
G01 X5.9822 Y18.0437
G01 X5.8555 Y17.9285
G01 X5.7531 Y17.7902
G01 X5.6788 Y17.6326
G01 X5.6324 Y17.4262
G01 X5.6321 Y17.2537
G01 X5.1205 Y16.7422
G01 X3.9178 Y16.7422
G00 Z2.5400
G00 X10.5638 Y38.9281
G01 F120.00
G01 Z-0.0950
G01 F300.00
G01 X10.4424 Y39.0260
G01 X10.2889 Y39.1077
G01 X10.1248 Y39.1572
G01 X9.9540 Y39.1740
G01 X9.7832 Y39.1572
G01 X9.6167 Y39.1068
G01 X9.4655 Y39.0260
G01 X9.3317 Y38.9162
G01 X9.2220 Y38.7824
G01 X9.1412 Y38.6312
G01 X9.0907 Y38.4648
G01 X9.0740 Y38.2940
G01 X9.0907 Y38.1232
G01 X9.1412 Y37.9567
G01 X9.2220 Y37.8055
G01 X9.3317 Y37.6717
G01 X9.5374 Y37.5188
G01 X9.7402 Y37.4403
G01 X9.9952 Y37.4150
G01 X10.2113 Y37.4525
G01 X10.4424 Y37.5620
G01 X10.6330 Y37.7342
G01 X10.7662 Y37.9554
G01 X10.8248 Y38.1678
G01 X11.9259 Y38.1679
G01 X12.0362 Y38.1848
G01 X12.1788 Y38.2659
G01 X12.6900 Y38.7764
G01 X12.8567 Y38.6957
G01 X13.0268 Y38.6532
G01 X13.2383 Y38.6480
G01 X13.4113 Y38.6825
G01 X13.6047 Y38.7682
G01 X13.7445 Y38.8715
G01 X13.8619 Y39.0014
G01 X13.9637 Y39.1798
G01 X16.9756 Y39.1798
G01 X17.1115 Y38.9575
G01 X17.2085 Y38.8557
G01 X17.3186 Y38.7698
G01 X17.4402 Y38.7010
G01 X17.5706 Y38.6508
G01 X17.7070 Y38.6202
G01 X17.8460 Y38.6100
G01 X18.3971 Y38.6144
G01 X18.5368 Y38.6385
G01 X18.6700 Y38.6825
G01 X18.8333 Y38.7698
G01 X18.9777 Y38.8882
G01 X19.0962 Y39.0326
G01 X19.1763 Y39.1798
G01 X20.7125 Y39.1798
G01 X21.2518 Y38.6405
G01 X21.2522 Y37.1193
G01 X21.2688 Y37.0238
G01 X21.3156 Y36.9252
G01 X23.0471 Y35.1895
G01 X23.1421 Y35.1387
G01 X23.2343 Y35.1177
G01 X23.7920 Y35.1158
G01 X23.7924 Y34.5380
G01 X23.8154 Y34.4894
G01 X23.8640 Y34.4664
G01 X24.4761 Y34.4661
G01 X24.5165 Y34.4795
G01 X24.5459 Y34.5153
G01 X24.5521 Y36.8885
G01 X25.0834 Y37.4198
G01 X28.6745 Y37.4198
G01 X29.8334 Y36.2610
G01 X28.3052 Y34.7328
G01 X28.2489 Y34.6611
G01 X28.2101 Y34.5740
G01 X28.1942 Y34.4807
G01 X28.1938 Y33.3360
G01 X27.6199 Y33.3359
G01 X27.5622 Y33.3068
G01 X27.5441 Y33.2601
G01 X27.5440 Y32.6560
G01 X27.5674 Y32.5994
G01 X27.6240 Y32.5760
G01 X29.5240 Y32.5760
G01 X29.5833 Y32.6023
G01 X29.6040 Y32.6560
G01 X29.6039 Y33.2601
G01 X29.5858 Y33.3068
G01 X29.5281 Y33.3359
G01 X28.9541 Y33.3360
G01 X28.9541 Y34.3065
G01 X30.3710 Y35.7234
G01 X31.1040 Y34.9903
G01 X31.0551 Y34.7421
G01 X31.0799 Y34.4861
G01 X31.1589 Y34.2814
G01 X31.3117 Y34.0757
G01 X31.5174 Y33.9228
G01 X31.7221 Y33.8439
G01 X31.9781 Y33.8191
G01 X32.2263 Y33.8680
G01 X33.4438 Y32.6505
G01 X33.4438 Y32.4465
G01 X33.2342 Y32.3170
G01 X33.0778 Y32.1531
G01 X32.9650 Y31.9544
G01 X32.9044 Y31.7364
G01 X32.8952 Y31.5504
G01 X32.9346 Y31.3261
G01 X33.0262 Y31.1201
G01 X33.1664 Y30.9404
G01 X33.3461 Y30.8002
G01 X33.5559 Y30.7075
G01 X33.8220 Y30.6680
G01 X34.0499 Y30.6958
G01 X34.2624 Y30.7778
G01 X34.4500 Y30.9102
G01 X34.6206 Y31.1182
G01 X34.7133 Y31.3261
G01 X34.7440 Y31.4619
G01 X34.7540 Y31.5999
G01 X34.7365 Y31.7775
G01 X34.7003 Y31.9094
G01 X34.6218 Y32.0759
G01 X34.5117 Y32.2240
G01 X34.3764 Y32.3461
G01 X34.2041 Y32.4465
G01 X34.2025 Y32.8433
G01 X34.1592 Y32.9872
G01 X34.0928 Y33.0768
G01 X32.7639 Y34.4056
G01 X32.8128 Y34.6528
G01 X32.7974 Y34.8677
G01 X32.7297 Y35.0738
G01 X32.6130 Y35.2577
G01 X32.4225 Y35.4300
G01 X32.1876 Y35.5406
G01 X31.9320 Y35.5780
G01 X31.8029 Y35.5681
G01 X31.6417 Y35.5279
G01 X29.1008 Y38.0688
G01 X29.0272 Y38.1262
G01 X28.9442 Y38.1632
G01 X28.8320 Y38.1801
G01 X24.9260 Y38.1801
G01 X24.7800 Y38.1510
G01 X24.6586 Y38.0702
G01 X23.9032 Y37.3148
G01 X23.8458 Y37.2412
G01 X23.8081 Y37.1559
G01 X23.7922 Y37.0627
G01 X23.7918 Y35.8761
G01 X23.4295 Y35.8761
G01 X22.0121 Y37.2935
G01 X22.0121 Y38.8000
G01 X21.9839 Y38.9416
G01 X21.9022 Y39.0654
G01 X21.1374 Y39.8302
G01 X21.0509 Y39.8943
G01 X20.9604 Y39.9292
G01 X20.8700 Y39.9401
G01 X19.1763 Y39.9401
G01 X19.0405 Y40.1625
G01 X18.9435 Y40.2643
G01 X18.8354 Y40.3488
G01 X18.6242 Y40.4551
G01 X18.4905 Y40.4919
G01 X18.3536 Y40.5088
G01 X17.7548 Y40.5056
G01 X17.6152 Y40.4815
G01 X17.4819 Y40.4375
G01 X17.3186 Y40.3502
G01 X17.1742 Y40.2317
G01 X17.0558 Y40.0873
G01 X16.9756 Y39.9401
G01 X13.9293 Y39.9401
G01 X13.7762 Y40.1462
G01 X13.5688 Y40.3001
G01 X13.3248 Y40.3872
G01 X13.0673 Y40.3997
G01 X12.8989 Y40.3662
G01 X12.7409 Y40.3010
G01 X12.6282 Y40.2296
G01 X12.5015 Y40.1145
G01 X12.3990 Y39.9762
G01 X12.3248 Y39.8186
G01 X12.2784 Y39.6122
G01 X12.2780 Y39.4397
G01 X11.7665 Y38.9281
G01 X10.5638 Y38.9281
G00 Z2.5400
G00 X25.3679 Y38.6801
G01 F120.00
G01 Z-0.0950
G01 F300.00
G01 X26.9953 Y38.6835
G01 X27.0338 Y38.7092
G01 X27.0516 Y38.7520
G01 X27.0520 Y39.1798
G01 X28.9865 Y39.1798
G01 X35.2498 Y32.9165
G01 X35.2498 Y30.8554
G01 X34.2145 Y29.8201
G01 X32.1494 Y29.8201
G01 X31.6641 Y30.3055
G01 X31.6641 Y30.6680
G01 X32.1420 Y30.6684
G01 X32.1877 Y30.6887
G01 X32.2124 Y30.7323
G01 X32.2139 Y32.4521
G01 X32.1958 Y32.4987
G01 X32.1535 Y32.5256
G01 X30.4144 Y32.5256
G01 X30.3747 Y32.5017
G01 X30.3549 Y32.4598
G01 X30.3540 Y32.0661
G01 X27.6044 Y32.0636
G01 X27.5622 Y32.0368
G01 X27.5441 Y31.9901
G01 X27.5441 Y31.3819
G01 X27.5763 Y31.3218
G01 X27.6240 Y31.3060
G01 X30.3540 Y31.3058
G01 X30.3541 Y30.7439
G01 X30.3697 Y30.7003
G01 X30.4299 Y30.6681
G01 X30.9038 Y30.6680
G01 X30.9055 Y30.1127
G01 X30.9263 Y30.0191
G01 X30.9676 Y29.9372
G01 X31.7372 Y29.1579
G01 X31.8447 Y29.0896
G01 X31.9543 Y29.0617
G01 X34.3720 Y29.0598
G01 X34.5008 Y29.0824
G01 X34.6394 Y29.1698
G01 X35.9341 Y30.4700
G01 X35.9885 Y30.5718
G01 X36.0101 Y30.6980
G01 X36.0097 Y33.0907
G01 X35.9885 Y33.2002
G01 X35.9449 Y33.2868
G01 X29.3720 Y39.8641
G01 X29.2728 Y39.9176
G01 X29.1607 Y39.9398
G01 X27.0520 Y39.9401
G01 X27.0516 Y40.3680
G01 X27.0338 Y40.4108
G01 X26.9953 Y40.4365
G01 X25.3487 Y40.4365
G01 X25.3077 Y40.4077
G01 X25.2921 Y40.3641
G01 X25.2920 Y38.7600
G01 X25.3127 Y38.7063
G01 X25.3679 Y38.6801
G00 Z2.5400
G00 X27.6199 Y30.0361
G01 F120.00
G01 Z-0.0950
G01 F300.00
G01 X29.4765 Y30.0358
G01 X29.7438 Y29.7685
G01 X29.7479 Y29.2020
G01 X29.7878 Y29.0799
G01 X29.8569 Y28.9868
G01 X29.8134 Y28.8362
G01 X29.7957 Y28.6557
G01 X29.8132 Y28.4762
G01 X29.8507 Y28.3405
G01 X29.9279 Y28.1778
G01 X30.0362 Y28.0316
G01 X30.1706 Y27.9095
G01 X30.3299 Y27.8141
G01 X30.4998 Y27.7535
G01 X30.6791 Y27.7268
G01 X30.8617 Y27.7357
G01 X31.0398 Y27.7803
G01 X31.2036 Y27.8579
G01 X31.3498 Y27.9662
G01 X31.4718 Y28.1005
G01 X31.5672 Y28.2598
G01 X31.6453 Y28.5173
G01 X31.6512 Y28.7473
G01 X31.6006 Y28.9708
G01 X31.4738 Y29.2081
G01 X31.3833 Y29.3133
G01 X31.2808 Y29.4018
G01 X31.1641 Y29.4758
G01 X31.0398 Y29.5310
G01 X30.9063 Y29.5680
G01 X30.7723 Y29.5845
G01 X30.5041 Y29.5588
G01 X30.5023 Y29.9633
G01 X30.4502 Y30.1212
G01 X30.3942 Y30.1934
G01 X29.9014 Y30.6862
G01 X29.7947 Y30.7605
G01 X29.6359 Y30.7961
G01 X27.5969 Y30.7913
G01 X27.5622 Y30.7668
G01 X27.5444 Y30.7240
G01 X27.5441 Y30.1119
G01 X27.5674 Y30.0594
G01 X27.6199 Y30.0361
G00 Z2.5400
M05
G00 Z2.5400
G00 Z12.70
G00 X0.0 Y0.0

M02