(G-CODE GENERATED BY FLATCAM v8.918 - www.flatcam.org - Version Date: 2019/06/11)

(Name: traces.gbr_iso_cnc)
(Type: G-code from Geometry)
(Units: IN)

(Created on Sunday, 16 June 2019 at 21:23)

(TOOL DIAMETER: 0.16 in)
(Feedrate: 76.2 in/min)
(Feedrate_Z: 76.2 in/min)
(Feedrate rapids 76.2 in/min)

(Z_Cut: -0.095 in)
(Z_Move: 2.54 in)
(Z Toolchange: 12.7 in)
(X,Y Toolchange: 0.0000, 0.0000 in)
(Z Start: None in)
(Z End: 12.7 in)
(Steps per circle: 128)
(Postprocessor Geometry: default)

(X range:    0.3560 ...   37.4440  in)
(Y range:    0.2387 ...   47.7987  in)

(Spindle Speed: None RPM)

G20
G90
G94

G01 F76.20
G00 Z2.5400

M03
G00 X0.3560 Y5.1429
G01 F76.20
G01 Z-0.0950
G01 F76.20
G01 X0.3743 Y5.0559
G01 X0.4248 Y4.9806
G01 X0.5000 Y4.9301
G01 X0.5871 Y4.9118
G01 X13.6146 Y4.9118
G01 X13.4724 Y4.6282
G01 X13.3198 Y4.1981
G01 X13.2318 Y3.7540
G01 X13.2087 Y3.4362
G01 X13.2317 Y2.9841
G01 X13.3207 Y2.5364
G01 X13.4209 Y2.2341
G01 X13.6169 Y1.8219
G01 X13.8685 Y1.4455
G01 X14.0767 Y1.2044
G01 X14.4125 Y0.9007
G01 X14.7918 Y0.6469
G01 X15.0764 Y0.5038
G01 X15.5028 Y0.3516
G01 X15.9503 Y0.2621
G01 X16.2680 Y0.2387
G01 X16.7202 Y0.2611
G01 X17.1679 Y0.3496
G01 X17.4704 Y0.4495
G01 X17.8797 Y0.6431
G01 X18.2595 Y0.8961
G01 X18.5009 Y1.1040
G01 X18.8072 Y1.4424
G01 X19.0592 Y1.8185
G01 X19.2026 Y2.1029
G01 X19.3553 Y2.5291
G01 X19.4453 Y2.9766
G01 X19.4691 Y3.2942
G01 X19.4467 Y3.7501
G01 X19.3592 Y4.1943
G01 X19.2597 Y4.4969
G01 X19.0634 Y4.9118
G01 X30.5630 Y4.9118
G01 X30.6738 Y4.9396
G01 X30.7648 Y5.0264
G01 X30.7980 Y5.1468
G01 X30.7980 Y21.1488
G01 X30.7702 Y21.2597
G01 X30.6834 Y21.3507
G01 X30.5630 Y21.3839
G01 X19.6970 Y21.3839
G01 X19.7585 Y21.7236
G01 X19.7854 Y22.0644
G01 X19.7648 Y22.5537
G01 X19.7103 Y22.8874
G01 X19.6222 Y23.2176
G01 X19.4399 Y23.6722
G01 X19.2773 Y23.9687
G01 X19.0847 Y24.2502
G01 X18.7610 Y24.6187
G01 X18.5091 Y24.8441
G01 X18.2331 Y25.0458
G01 X17.8058 Y25.2851
G01 X17.4897 Y25.4150
G01 X17.1658 Y25.5121
G01 X16.6832 Y25.5955
G01 X16.3455 Y25.6127
G01 X16.0041 Y25.5964
G01 X15.5213 Y25.5143
G01 X15.1937 Y25.4169
G01 X14.8806 Y25.2891
G01 X14.4527 Y25.0509
G01 X14.1762 Y24.8500
G01 X13.9236 Y24.6252
G01 X13.5993 Y24.2582
G01 X13.4074 Y23.9798
G01 X13.2422 Y23.6806
G01 X13.0586 Y23.2264
G01 X12.9696 Y22.8966
G01 X12.9142 Y22.5630
G01 X12.8923 Y22.0737
G01 X12.9182 Y21.7329
G01 X12.9791 Y21.3919
G01 X0.5908 Y21.3839
G01 X0.4802 Y21.3561
G01 X0.3894 Y21.2696
G01 X0.3560 Y21.1488
G01 X0.3560 Y5.1429
G00 Z2.5400
G00 X0.8260 Y5.3819
G01 F76.20
G01 Z-0.0950
G01 F76.20
G01 X14.0530 Y5.3819
G01 X14.1211 Y5.3718
G01 X14.1987 Y5.3313
G01 X14.2566 Y5.2643
G01 X14.2856 Y5.1805
G01 X14.2810 Y5.0900
G01 X14.2525 Y5.0227
G01 X14.0218 Y4.6768
G01 X13.8550 Y4.3229
G01 X13.7420 Y3.9484
G01 X13.6851 Y3.5614
G01 X13.6790 Y3.3005
G01 X13.7177 Y2.9112
G01 X13.7752 Y2.6567
G01 X13.9073 Y2.2885
G01 X14.0920 Y1.9436
G01 X14.3253 Y1.6295
G01 X14.6020 Y1.3531
G01 X14.9164 Y1.1202
G01 X15.2615 Y0.9359
G01 X15.5049 Y0.8421
G01 X15.8844 Y0.7471
G01 X16.2738 Y0.7088
G01 X16.6645 Y0.7279
G01 X17.0482 Y0.8042
G01 X17.4166 Y0.9359
G01 X17.7617 Y1.1202
G01 X18.0760 Y1.3531
G01 X18.2651 Y1.5329
G01 X18.5134 Y1.8352
G01 X18.7148 Y2.1706
G01 X18.8648 Y2.5319
G01 X18.9603 Y2.9113
G01 X18.9990 Y3.3005
G01 X18.9929 Y3.5614
G01 X18.9360 Y3.9485
G01 X18.8230 Y4.3230
G01 X18.6562 Y4.6769
G01 X18.4254 Y5.0227
G01 X18.3969 Y5.0899
G01 X18.3920 Y5.1774
G01 X18.4177 Y5.2577
G01 X18.4729 Y5.3260
G01 X18.5496 Y5.3694
G01 X18.6250 Y5.3819
G01 X30.3279 Y5.3819
G01 X30.3279 Y20.9138
G01 X19.3867 Y20.9138
G01 X19.3185 Y20.9240
G01 X19.2526 Y20.9560
G01 X19.1999 Y21.0066
G01 X19.1655 Y21.0701
G01 X19.1521 Y21.1419
G01 X19.2706 Y21.6426
G01 X19.3074 Y21.9290
G01 X19.3102 Y22.3618
G01 X19.2772 Y22.6486
G01 X19.1760 Y23.0694
G01 X19.0751 Y23.3399
G01 X18.9485 Y23.5993
G01 X18.7973 Y23.8452
G01 X18.5277 Y24.1838
G01 X18.3220 Y24.3863
G01 X18.0975 Y24.5679
G01 X17.7306 Y24.7974
G01 X17.3343 Y24.9713
G01 X17.0578 Y25.0545
G01 X16.6313 Y25.1282
G01 X16.3430 Y25.1426
G01 X15.9113 Y25.1117
G01 X15.6280 Y25.0565
G01 X15.2163 Y24.9228
G01 X14.9545 Y24.8012
G01 X14.7057 Y24.6547
G01 X14.3620 Y24.3917
G01 X14.1557 Y24.1898
G01 X13.8852 Y23.8519
G01 X13.7334 Y23.6064
G01 X13.5519 Y23.2134
G01 X13.4635 Y22.9386
G01 X13.4021 Y22.6565
G01 X13.3683 Y22.3698
G01 X13.3699 Y21.9370
G01 X13.4059 Y21.6506
G01 X13.5231 Y21.1497
G01 X13.5093 Y21.0774
G01 X13.4725 Y21.0112
G01 X13.4189 Y20.9617
G01 X13.3493 Y20.9302
G01 X0.8260 Y20.9139
G01 X0.8260 Y5.3819
G00 Z2.5400
G00 X1.2180 Y8.1655
G01 F76.20
G01 Z-0.0950
G01 F76.20
G01 X1.2534 Y7.9923
G01 X1.3527 Y7.8441
G01 X2.6654 Y6.5322
G01 X2.7938 Y6.4505
G01 X2.9275 Y6.4162
G01 X10.0347 Y6.4147
G01 X10.1648 Y6.4413
G01 X10.2854 Y6.5068
G01 X10.7695 Y6.9846
G01 X10.8102 Y6.8725
G01 X10.8804 Y6.7779
G01 X10.9773 Y6.7057
G01 X11.0919 Y6.6646
G01 X12.6542 Y6.6568
G01 X13.4909 Y5.8210
G01 X13.6030 Y5.7465
G01 X13.7323 Y5.7075
G01 X19.6655 Y5.7033
G01 X19.8181 Y5.7381
G01 X19.9490 Y5.8210
G01 X21.1016 Y6.9727
G01 X23.4927 Y6.9746
G01 X23.5705 Y7.0092
G01 X23.6220 Y7.0862
G01 X23.6290 Y7.4096
G01 X23.7107 Y7.2556
G01 X23.6620 Y6.9940
G01 X23.6809 Y6.7417
G01 X23.7560 Y6.5143
G01 X23.8618 Y6.3378
G01 X23.9565 Y6.2284
G01 X24.0659 Y6.1337
G01 X24.2806 Y6.0110
G01 X24.5233 Y5.9433
G01 X24.7706 Y5.9375
G01 X25.0146 Y5.9929
G01 X25.1468 Y6.0518
G01 X25.2692 Y6.1290
G01 X25.4517 Y6.3022
G01 X25.5841 Y6.5115
G01 X25.6616 Y6.7472
G01 X25.6792 Y6.9960
G01 X25.6616 Y7.1378
G01 X25.6229 Y7.2791
G01 X25.5125 Y7.5006
G01 X25.7008 Y7.3319
G01 X25.7997 Y7.2877
G01 X25.8958 Y7.2686
G01 X28.3170 Y7.2667
G01 X28.4326 Y7.2815
G01 X28.5339 Y7.3210
G01 X28.6289 Y7.3886
G01 X29.9031 Y8.6623
G01 X29.9986 Y8.8051
G01 X30.0346 Y8.9622
G01 X30.0328 Y11.4068
G01 X29.9913 Y11.5568
G01 X29.9004 Y11.6862
G01 X23.3479 Y18.2272
G01 X23.2263 Y18.2860
G01 X23.1076 Y18.3066
G01 X21.0770 Y18.3070
G01 X21.0721 Y18.6859
G01 X21.0355 Y18.7543
G01 X20.9636 Y18.7999
G01 X19.2933 Y18.8051
G01 X19.1985 Y18.7543
G01 X19.1572 Y18.6550
G01 X19.1572 Y17.0387
G01 X19.1759 Y16.9713
G01 X19.2216 Y16.9184
G01 X19.3170 Y16.8868
G01 X20.9407 Y16.8886
G01 X21.0245 Y16.9283
G01 X21.0721 Y17.0077
G01 X21.0770 Y17.3867
G01 X22.8984 Y17.3867
G01 X29.1148 Y11.1702
G01 X29.1148 Y9.1754
G01 X28.1264 Y8.1870
G01 X26.1276 Y8.1870
G01 X25.6891 Y8.6254
G01 X25.6891 Y8.8748
G01 X26.1104 Y8.8779
G01 X26.1921 Y8.9217
G01 X26.2341 Y8.9957
G01 X26.2390 Y10.7348
G01 X26.2120 Y10.8238
G01 X26.1545 Y10.8759
G01 X26.0871 Y10.8946
G01 X24.3708 Y10.8946
G01 X24.2836 Y10.8633
G01 X24.2259 Y10.7815
G01 X24.2190 Y10.4330
G01 X21.5690 Y10.4328
G01 X21.5076 Y10.4206
G01 X21.4405 Y10.3682
G01 X21.4098 Y10.2888
G01 X21.4138 Y9.6337
G01 X21.4674 Y9.5492
G01 X21.5608 Y9.5130
G01 X24.2190 Y9.5127
G01 X24.2192 Y9.0267
G01 X24.2418 Y8.9525
G01 X24.2900 Y8.9018
G01 X24.3552 Y8.8766
G01 X24.7688 Y8.8748
G01 X24.7695 Y8.4103
G01 X24.8043 Y8.2577
G01 X24.8872 Y8.1268
G01 X25.2287 Y7.7843
G01 X25.0608 Y7.8741
G01 X24.9123 Y7.9232
G01 X24.7222 Y7.9512
G01 X24.5291 Y7.9425
G01 X24.5235 Y8.2842
G01 X24.4937 Y8.3899
G01 X24.4369 Y8.4892
G01 X23.8705 Y9.0588
G01 X23.7377 Y9.1347
G01 X23.5976 Y9.1626
G01 X21.5149 Y9.1534
G01 X21.4453 Y9.1044
G01 X21.4107 Y9.0266
G01 X21.4090 Y8.4028
G01 X21.4184 Y8.3488
G01 X21.4504 Y8.2954
G01 X21.4934 Y8.2618
G01 X21.5530 Y8.2436
G01 X23.3884 Y8.2427
G01 X23.6088 Y8.0222
G01 X23.6088 Y7.8105
G01 X23.5513 Y7.8700
G01 X23.4771 Y7.8926
G01 X21.1596 Y7.8930
G01 X21.1171 Y7.9354
G01 X21.1162 Y14.7488
G01 X21.0755 Y14.8403
G01 X20.9884 Y14.8897
G01 X20.3488 Y14.8926
G01 X20.2884 Y14.8774
G01 X20.2384 Y14.8403
G01 X20.2064 Y14.7869
G01 X20.1970 Y14.7328
G01 X20.1969 Y7.7409
G01 X20.2237 Y7.5898
G01 X20.2920 Y7.4647
G01 X19.4504 Y6.6230
G01 X13.9896 Y6.6230
G01 X13.2810 Y7.3316
G01 X13.2809 Y8.3095
G01 X13.2635 Y8.4247
G01 X13.2116 Y8.5346
G01 X13.1246 Y8.6286
G01 X13.0202 Y8.6884
G01 X12.8784 Y8.7166
G01 X11.1683 Y8.7168
G01 X11.0072 Y8.6824
G01 X10.8812 Y8.5966
G01 X10.7954 Y8.4706
G01 X10.7630 Y8.3472
G01 X10.7610 Y8.1430
G01 X10.6413 Y8.1104
G01 X10.5261 Y8.0400
G01 X9.8176 Y7.3342
G01 X3.1641 Y7.3342
G01 X2.1382 Y8.3600
G01 X2.1382 Y17.1635
G01 X4.4595 Y19.4847
G01 X14.6970 Y19.4847
G01 X16.7093 Y17.4789
G01 X16.8085 Y17.4221
G01 X16.9142 Y17.3923
G01 X17.2746 Y17.3867
G01 X17.4354 Y17.1708
G01 X17.6201 Y17.0255
G01 X17.8391 Y16.9279
G01 X18.0660 Y16.8882
G01 X18.2120 Y16.8915
G01 X18.3502 Y16.9156
G01 X18.4854 Y16.9603
G01 X18.6101 Y17.0232
G01 X18.7256 Y17.1044
G01 X18.8291 Y17.2031
G01 X18.9158 Y17.3144
G01 X18.9864 Y17.4399
G01 X19.0482 Y17.6136
G01 X19.0756 Y17.7958
G01 X19.0719 Y17.9448
G01 X19.0359 Y18.1247
G01 X18.9636 Y18.2994
G01 X18.8594 Y18.4555
G01 X18.7256 Y18.5892
G01 X18.5771 Y18.6892
G01 X18.5771 Y18.7876
G01 X19.2082 Y19.4187
G01 X22.6630 Y19.4187
G01 X24.4588 Y17.6267
G01 X24.5516 Y17.5685
G01 X24.6617 Y17.5328
G01 X25.0366 Y17.5247
G01 X25.1651 Y17.3431
G01 X25.3103 Y17.2115
G01 X25.5080 Y17.0995
G01 X25.6934 Y17.0429
G01 X25.8829 Y17.0249
G01 X26.1084 Y17.0527
G01 X26.2887 Y17.1166
G01 X26.4531 Y17.2154
G01 X26.5929 Y17.3431
G01 X26.7237 Y17.5288
G01 X26.7979 Y17.7069
G01 X26.8347 Y17.8946
G01 X26.8209 Y18.1704
G01 X26.7823 Y18.3098
G01 X26.7274 Y18.4339
G01 X26.5876 Y18.6324
G01 X26.3759 Y18.8062
G01 X26.2040 Y18.8881
G01 X26.0190 Y18.9346
G01 X25.8300 Y18.9436
G01 X25.6458 Y18.9161
G01 X25.5080 Y18.8702
G01 X25.3465 Y18.7836
G01 X25.1668 Y18.6286
G01 X25.0366 Y18.4450
G01 X24.9382 Y18.4450
G01 X23.1655 Y20.2171
G01 X23.0468 Y20.2964
G01 X22.8996 Y20.3367
G01 X19.0176 Y20.3390
G01 X18.8610 Y20.3115
G01 X18.7057 Y20.2171
G01 X17.7638 Y19.2731
G01 X17.7007 Y19.1742
G01 X17.6653 Y19.0662
G01 X17.6568 Y18.6892
G01 X17.4382 Y18.5257
G01 X17.2746 Y18.3070
G01 X17.1762 Y18.3070
G01 X15.1995 Y20.2831
G01 X15.0836 Y20.3612
G01 X14.9590 Y20.3994
G01 X4.2229 Y20.4027
G01 X4.0729 Y20.3612
G01 X3.9435 Y20.2702
G01 X1.3500 Y17.6766
G01 X1.2742 Y17.5744
G01 X1.2317 Y17.4658
G01 X1.2179 Y17.3541
G01 X1.2180 Y8.1655
G00 Z2.5400
G00 X3.9029 Y8.0009
G01 F76.20
G01 Z-0.0950
G01 F76.20
G01 X4.1693 Y8.0398
G01 X4.4442 Y7.7776
G01 X4.5477 Y7.7263
G01 X4.6725 Y7.7015
G01 X7.9230 Y7.7007
G01 X8.0528 Y7.7194
G01 X8.1591 Y7.7659
G01 X8.2456 Y7.8327
G01 X10.1796 Y9.7667
G01 X10.8698 Y9.7667
G01 X11.0305 Y9.5322
G01 X11.1379 Y9.4303
G01 X11.2581 Y9.3454
G01 X11.4958 Y9.2401
G01 X11.6407 Y9.2079
G01 X11.7910 Y9.1968
G01 X12.3480 Y9.2015
G01 X12.5995 Y9.2576
G01 X12.7801 Y9.3431
G01 X12.9417 Y9.4628
G01 X13.0766 Y9.6110
G01 X13.1722 Y9.7667
G01 X13.3544 Y9.7667
G01 X14.7609 Y8.3610
G01 X14.8893 Y8.2793
G01 X15.0278 Y8.2446
G01 X18.5904 Y8.2460
G01 X18.6775 Y8.2954
G01 X18.7172 Y8.3791
G01 X18.7188 Y9.0110
G01 X18.7067 Y9.0642
G01 X18.6721 Y9.1160
G01 X18.6204 Y9.1506
G01 X18.5671 Y9.1626
G01 X15.2596 Y9.1630
G01 X13.8703 Y10.5522
G01 X13.7811 Y10.6218
G01 X13.6963 Y10.6614
G01 X13.5910 Y10.6847
G01 X13.1722 Y10.6870
G01 X13.0496 Y10.8772
G01 X12.9074 Y11.0205
G01 X12.7366 Y11.1352
G01 X12.5492 Y11.2127
G01 X12.3034 Y11.2555
G01 X11.7365 Y11.2554
G01 X11.5918 Y11.2374
G01 X11.4477 Y11.1979
G01 X11.2196 Y11.0838
G01 X11.0269 Y10.9176
G01 X10.8698 Y10.6870
G01 X9.9625 Y10.6862
G01 X9.8377 Y10.6614
G01 X9.7342 Y10.6100
G01 X7.7324 Y8.6210
G01 X4.8896 Y8.6210
G01 X4.8200 Y8.6905
G01 X4.8590 Y8.9608
G01 X4.8487 Y9.1008
G01 X4.8165 Y9.2432
G01 X4.6993 Y9.4909
G01 X4.5427 Y9.6730
G01 X4.4314 Y9.7596
G01 X4.3087 Y9.8290
G01 X4.1769 Y9.8797
G01 X4.0437 Y9.9098
G01 X3.8010 Y9.9158
G01 X3.6658 Y9.8921
G01 X3.5306 Y9.8473
G01 X3.4021 Y9.7822
G01 X3.2552 Y9.6730
G01 X3.1545 Y9.5668
G01 X3.0524 Y9.4134
G01 X2.9815 Y9.2432
G01 X2.9493 Y9.1008
G01 X2.9390 Y8.9569
G01 X2.9571 Y8.7753
G01 X2.9965 Y8.6337
G01 X3.0753 Y8.4677
G01 X3.1594 Y8.3488
G01 X3.2903 Y8.2184
G01 X3.4088 Y8.1354
G01 X3.5740 Y8.0575
G01 X3.7543 Y8.0118
G01 X3.9029 Y8.0009
G00 Z2.5400
G00 X7.1029 Y9.2309
G01 F76.20
G01 Z-0.0950
G01 F76.20
G01 X7.2901 Y9.2501
G01 X7.5059 Y9.3214
G01 X7.6731 Y9.4215
G01 X7.8112 Y9.5471
G01 X7.9456 Y9.7383
G01 X8.0311 Y9.9614
G01 X8.0589 Y10.1948
G01 X8.0200 Y10.4611
G01 X9.8656 Y12.3067
G01 X10.8698 Y12.3067
G01 X11.0269 Y12.0761
G01 X11.2196 Y11.9098
G01 X11.4477 Y11.7958
G01 X11.5918 Y11.7563
G01 X11.7385 Y11.7382
G01 X12.3034 Y11.7382
G01 X12.5462 Y11.7801
G01 X12.6906 Y11.8354
G01 X12.8223 Y11.9098
G01 X12.9417 Y12.0028
G01 X13.0437 Y12.1093
G01 X15.5084 Y9.6447
G01 X15.6106 Y9.5689
G01 X15.7230 Y9.5256
G01 X15.8309 Y9.5127
G01 X17.3959 Y9.5121
G01 X17.5730 Y9.4767
G01 X17.7517 Y9.5128
G01 X18.5981 Y9.5177
G01 X18.6775 Y9.5654
G01 X18.7172 Y9.6491
G01 X18.7182 Y10.2888
G01 X18.7000 Y10.3484
G01 X18.6664 Y10.3914
G01 X18.5671 Y10.4326
G01 X16.0216 Y10.4330
G01 X13.3623 Y13.0922
G01 X13.2769 Y13.1595
G01 X13.1841 Y13.2027
G01 X13.0475 Y13.4199
G01 X12.8677 Y13.5918
G01 X12.6461 Y13.7180
G01 X12.4060 Y13.7851
G01 X12.2510 Y13.7968
G01 X11.6891 Y13.7918
G01 X11.4424 Y13.7361
G01 X11.2155 Y13.6210
G01 X11.0269 Y13.4576
G01 X10.8698 Y13.2270
G01 X9.6563 Y13.2266
G01 X9.5452 Y13.2083
G01 X9.4546 Y13.1708
G01 X9.3496 Y13.0922
G01 X7.3693 Y11.1119
G01 X7.1029 Y11.1508
G01 X6.8658 Y11.1221
G01 X6.6430 Y11.0356
G01 X6.5249 Y10.9602
G01 X6.4202 Y10.8697
G01 X6.3296 Y10.7650
G01 X6.2524 Y10.6434
G01 X6.1957 Y10.5158
G01 X6.1571 Y10.3764
G01 X6.1403 Y10.2399
G01 X6.1437 Y10.0958
G01 X6.1677 Y9.9577
G01 X6.2125 Y9.8225
G01 X6.2753 Y9.6977
G01 X6.3566 Y9.5822
G01 X6.4552 Y9.4787
G01 X6.5665 Y9.3920
G01 X6.6893 Y9.3227
G01 X6.8211 Y9.2719
G01 X6.9590 Y9.2411
G01 X7.1029 Y9.2309
G00 Z2.5400
G00 X11.7910 Y14.2768
G01 F76.20
G01 Z-0.0950
G01 F76.20
G01 X12.3480 Y14.2815
G01 X12.6017 Y14.3384
G01 X12.7771 Y14.4214
G01 X12.9074 Y14.5132
G01 X13.0475 Y14.6538
G01 X13.1472 Y14.7998
G01 X14.1080 Y13.8390
G01 X14.0635 Y13.6239
G01 X14.0705 Y13.3768
G01 X14.1363 Y13.1413
G01 X14.2594 Y12.9249
G01 X14.3878 Y12.7831
G01 X14.5087 Y12.6885
G01 X14.6789 Y12.5973
G01 X14.8274 Y12.5482
G01 X15.0175 Y12.5202
G01 X15.2163 Y12.5296
G01 X15.4108 Y12.5784
G01 X15.5878 Y12.6623
G01 X15.7463 Y12.7796
G01 X15.8785 Y12.9249
G01 X15.9824 Y13.0977
G01 X16.0496 Y13.2872
G01 X16.0740 Y13.4289
G01 X16.0777 Y13.5803
G01 X16.0599 Y13.7241
G01 X16.0212 Y13.8654
G01 X15.9065 Y14.0932
G01 X15.8182 Y14.2062
G01 X15.7127 Y14.3070
G01 X15.5001 Y14.4422
G01 X15.2643 Y14.5198
G01 X15.0175 Y14.5375
G01 X14.7588 Y14.4898
G01 X13.5825 Y15.6628
G01 X13.4912 Y15.7211
G01 X13.4027 Y15.7532
G01 X13.1722 Y15.7670
G01 X13.0496 Y15.9572
G01 X12.9040 Y16.1033
G01 X12.6949 Y16.2362
G01 X12.4974 Y16.3069
G01 X12.2976 Y16.3357
G01 X11.7444 Y16.3357
G01 X11.5862 Y16.3162
G01 X11.4005 Y16.2599
G01 X11.2196 Y16.1638
G01 X11.0599 Y16.0323
G01 X10.9096 Y15.8397
G01 X10.8199 Y15.6501
G01 X10.7660 Y15.4087
G01 X10.7720 Y15.1565
G01 X10.8398 Y14.9117
G01 X10.9614 Y14.6964
G01 X11.1022 Y14.5411
G01 X11.3089 Y14.3966
G01 X11.5408 Y14.3077
G01 X11.7910 Y14.2768
G00 Z2.5400
G00 X16.6508 Y10.7830
G01 F76.20
G01 Z-0.0950
G01 F76.20
G01 X19.2226 Y10.7871
G01 X19.3361 Y10.8181
G01 X19.4353 Y10.8749
G01 X19.7549 Y11.1945
G01 X19.8215 Y11.3195
G01 X19.8471 Y11.4708
G01 X19.8470 Y14.7328
G01 X19.8316 Y14.8014
G01 X19.7823 Y14.8613
G01 X19.6951 Y14.8926
G01 X19.0710 Y14.8920
G01 X18.9854 Y14.8565
G01 X18.9318 Y14.7719
G01 X18.9268 Y11.7030
G01 X16.6590 Y11.7028
G01 X16.5976 Y11.6906
G01 X16.5353 Y11.6444
G01 X16.5007 Y11.5666
G01 X16.4992 Y10.9347
G01 X16.5112 Y10.8815
G01 X16.5458 Y10.8297
G01 X16.5904 Y10.7983
G01 X16.6508 Y10.7830
G00 Z2.5400
G00 X16.6508 Y6.9730
G01 F76.20
G01 Z-0.0950
G01 F76.20
G01 X18.5590 Y6.9728
G01 X18.6204 Y6.9851
G01 X18.6875 Y7.0375
G01 X18.7182 Y7.1169
G01 X18.7190 Y7.7328
G01 X18.7067 Y7.7942
G01 X18.6479 Y7.8658
G01 X18.5671 Y7.8926
G01 X16.6590 Y7.8928
G01 X16.5976 Y7.8806
G01 X16.5353 Y7.8344
G01 X16.5007 Y7.7566
G01 X16.4992 Y7.1247
G01 X16.5112 Y7.0715
G01 X16.5458 Y7.0197
G01 X16.5976 Y6.9851
G01 X16.6508 Y6.9730
G00 Z2.5400
G00 X4.5405 Y17.2950
G01 F76.20
G01 Z-0.0950
G01 F76.20
G01 X4.3921 Y17.4045
G01 X4.2240 Y17.4841
G01 X4.0390 Y17.5306
G01 X3.8500 Y17.5396
G01 X3.6658 Y17.5121
G01 X3.4893 Y17.4490
G01 X3.3249 Y17.3502
G01 X3.1868 Y17.2246
G01 X3.0753 Y17.0739
G01 X2.9957 Y16.9058
G01 X2.9493 Y16.7208
G01 X2.9403 Y16.5318
G01 X2.9677 Y16.3476
G01 X3.0308 Y16.1711
G01 X3.1296 Y16.0067
G01 X3.2552 Y15.8687
G01 X3.4499 Y15.7324
G01 X3.7079 Y15.6401
G01 X3.9480 Y15.6221
G01 X4.1814 Y15.6633
G01 X4.4291 Y15.7805
G01 X4.6112 Y15.9371
G01 X4.7474 Y16.1318
G01 X4.8364 Y16.3747
G01 X5.8729 Y16.3747
G01 X6.0063 Y16.3957
G01 X6.1022 Y16.4382
G01 X6.1771 Y16.4930
G01 X6.6482 Y16.9633
G01 X6.8211 Y16.8919
G01 X7.0040 Y16.8556
G01 X7.1940 Y16.8556
G01 X7.3814 Y16.8934
G01 X7.5516 Y16.9642
G01 X7.7110 Y17.0713
G01 X7.8435 Y17.2049
G01 X7.9600 Y17.3867
G01 X10.8698 Y17.3867
G01 X11.0305 Y17.1522
G01 X11.1379 Y17.0503
G01 X11.2581 Y16.9654
G01 X11.4958 Y16.8601
G01 X11.6407 Y16.8279
G01 X11.7910 Y16.8168
G01 X12.3528 Y16.8219
G01 X12.5012 Y16.8477
G01 X12.6461 Y16.8957
G01 X12.8199 Y16.9883
G01 X12.9456 Y17.0863
G01 X13.0766 Y17.2310
G01 X13.1722 Y17.3867
G01 X14.6244 Y17.3867
G01 X15.1168 Y16.8942
G01 X15.1175 Y15.3983
G01 X15.1424 Y15.2715
G01 X15.1938 Y15.1681
G01 X16.9406 Y13.4149
G01 X17.0399 Y13.3581
G01 X17.1533 Y13.3271
G01 X17.6570 Y13.3227
G01 X17.6601 Y12.8014
G01 X17.7095 Y12.7143
G01 X17.8010 Y12.6736
G01 X18.4407 Y12.6746
G01 X18.5185 Y12.7092
G01 X18.5647 Y12.7715
G01 X18.5770 Y12.8328
G01 X18.5771 Y15.1422
G01 X19.0616 Y15.6267
G01 X22.5864 Y15.6267
G01 X23.6652 Y14.5478
G01 X22.1936 Y13.0762
G01 X22.1240 Y12.9870
G01 X22.0784 Y12.8836
G01 X22.0595 Y12.7753
G01 X22.0588 Y11.7028
G01 X21.5530 Y11.7020
G01 X21.4866 Y11.6800
G01 X21.4360 Y11.6318
G01 X21.4092 Y11.5510
G01 X21.4090 Y10.9428
G01 X21.4212 Y10.8815
G01 X21.4558 Y10.8297
G01 X21.5076 Y10.7951
G01 X21.5690 Y10.7828
G01 X23.4690 Y10.7828
G01 X23.5304 Y10.7951
G01 X23.5875 Y10.8354
G01 X23.6196 Y10.8888
G01 X23.6290 Y10.9428
G01 X23.6288 Y11.5510
G01 X23.6020 Y11.6318
G01 X23.5513 Y11.6800
G01 X23.4849 Y11.7020
G01 X22.9791 Y11.7028
G01 X22.9791 Y12.5602
G01 X24.3160 Y13.8971
G01 X24.9579 Y13.2551
G01 X24.9190 Y12.9888
G01 X24.9477 Y12.7517
G01 X25.0342 Y12.5289
G01 X25.1096 Y12.4107
G01 X25.2002 Y12.3060
G01 X25.3049 Y12.2155
G01 X25.4230 Y12.1401
G01 X25.6458 Y12.0536
G01 X25.8829 Y12.0249
G01 X26.1493 Y12.0638
G01 X27.3088 Y10.9042
G01 X27.3088 Y10.7836
G01 X27.0878 Y10.6305
G01 X26.9879 Y10.5252
G01 X26.9047 Y10.4074
G01 X26.8186 Y10.2266
G01 X26.7698 Y10.0322
G01 X26.7639 Y9.7849
G01 X26.8167 Y9.5483
G01 X26.9047 Y9.3622
G01 X27.0576 Y9.1679
G01 X27.1651 Y9.0753
G01 X27.2894 Y8.9960
G01 X27.5198 Y8.9061
G01 X27.7690 Y8.8748
G01 X28.0143 Y8.9051
G01 X28.2451 Y8.9941
G01 X28.4501 Y9.1391
G01 X28.5500 Y9.2444
G01 X28.6332 Y9.3622
G01 X28.7343 Y9.5879
G01 X28.7682 Y9.7375
G01 X28.7790 Y9.8848
G01 X28.7682 Y10.0322
G01 X28.7343 Y10.1818
G01 X28.6597 Y10.3610
G01 X28.5472 Y10.5286
G01 X28.4093 Y10.6659
G01 X28.2291 Y10.7836
G01 X28.2268 Y11.1408
G01 X28.1748 Y11.3117
G01 X28.0944 Y11.4202
G01 X26.8000 Y12.7145
G01 X26.8377 Y12.9358
G01 X26.8209 Y13.1704
G01 X26.7472 Y13.3945
G01 X26.6214 Y13.5935
G01 X26.5227 Y13.6970
G01 X26.4114 Y13.7836
G01 X26.2887 Y13.8530
G01 X26.1569 Y13.9037
G01 X26.0190 Y13.9346
G01 X25.8790 Y13.9448
G01 X25.6087 Y13.9059
G01 X23.0996 Y16.4150
G01 X23.0135 Y16.4815
G01 X22.9143 Y16.5260
G01 X22.7770 Y16.5470
G01 X18.8710 Y16.5470
G01 X18.6949 Y16.5120
G01 X18.5484 Y16.4150
G01 X17.7889 Y15.6554
G01 X17.7203 Y15.5660
G01 X17.6764 Y15.4656
G01 X17.6574 Y15.3554
G01 X17.6568 Y14.2430
G01 X17.4076 Y14.2430
G01 X16.0371 Y15.6134
G01 X16.0371 Y17.0888
G01 X16.0017 Y17.2619
G01 X15.9153 Y17.3967
G01 X15.1375 Y18.1749
G01 X15.0353 Y18.2508
G01 X14.9230 Y18.2941
G01 X14.8150 Y18.3070
G01 X13.1722 Y18.3070
G01 X13.0150 Y18.5376
G01 X12.8223 Y18.7038
G01 X12.5943 Y18.8179
G01 X12.4502 Y18.8574
G01 X12.3034 Y18.8755
G01 X11.6939 Y18.8722
G01 X11.5408 Y18.8460
G01 X11.4005 Y18.7999
G01 X11.2220 Y18.7054
G01 X11.0964 Y18.6073
G01 X10.9654 Y18.4626
G01 X10.8698 Y18.3070
G01 X7.9208 Y18.3070
G01 X7.8414 Y18.4195
G01 X7.7427 Y18.5230
G01 X7.6314 Y18.6096
G01 X7.5130 Y18.6769
G01 X7.2824 Y18.7531
G01 X7.1480 Y18.7696
G01 X7.0040 Y18.7661
G01 X6.8211 Y18.7297
G01 X6.6499 Y18.6593
G01 X6.5240 Y18.5795
G01 X6.3868 Y18.4546
G01 X6.2753 Y18.3040
G01 X6.1957 Y18.1358
G01 X6.1493 Y17.9509
G01 X6.1406 Y17.7572
G01 X5.6784 Y17.2950
G01 X4.5405 Y17.2950
G00 Z2.5400
G00 X7.0020 Y27.3289
G01 F76.20
G01 Z-0.0950
G01 F76.20
G01 X7.0203 Y27.2418
G01 X7.0708 Y27.1666
G01 X7.1460 Y27.1161
G01 X7.2331 Y27.0978
G01 X20.2606 Y27.0978
G01 X20.1185 Y26.8141
G01 X19.9658 Y26.3840
G01 X19.8778 Y25.9399
G01 X19.8548 Y25.6222
G01 X19.8777 Y25.1700
G01 X19.9667 Y24.7224
G01 X20.0669 Y24.4200
G01 X20.2629 Y24.0078
G01 X20.5145 Y23.6314
G01 X20.7227 Y23.3903
G01 X21.0585 Y23.0867
G01 X21.4378 Y22.8328
G01 X21.7224 Y22.6897
G01 X22.1488 Y22.5375
G01 X22.5963 Y22.4481
G01 X22.9140 Y22.4246
G01 X23.3662 Y22.4471
G01 X23.8139 Y22.5356
G01 X24.1164 Y22.6354
G01 X24.5257 Y22.8291
G01 X24.9056 Y23.0821
G01 X25.1469 Y23.2900
G01 X25.4532 Y23.6283
G01 X25.7052 Y24.0045
G01 X25.8487 Y24.2889
G01 X26.0013 Y24.7151
G01 X26.0913 Y25.1625
G01 X26.1151 Y25.4802
G01 X26.0927 Y25.9361
G01 X26.0052 Y26.3803
G01 X25.9057 Y26.6829
G01 X25.7094 Y27.0978
G01 X37.2090 Y27.0978
G01 X37.3198 Y27.1255
G01 X37.4108 Y27.2124
G01 X37.4440 Y27.3328
G01 X37.4440 Y43.3348
G01 X37.4162 Y43.4456
G01 X37.3294 Y43.5366
G01 X37.2090 Y43.5698
G01 X26.3431 Y43.5698
G01 X26.4045 Y43.9096
G01 X26.4314 Y44.2503
G01 X26.4108 Y44.7397
G01 X26.3563 Y45.0734
G01 X26.2682 Y45.4036
G01 X26.0859 Y45.8581
G01 X25.9234 Y46.1547
G01 X25.7307 Y46.4362
G01 X25.4070 Y46.8046
G01 X25.1551 Y47.0301
G01 X24.8791 Y47.2317
G01 X24.4518 Y47.4711
G01 X24.1357 Y47.6010
G01 X23.8118 Y47.6980
G01 X23.3292 Y47.7814
G01 X22.9915 Y47.7987
G01 X22.6501 Y47.7823
G01 X22.1673 Y47.7003
G01 X21.8397 Y47.6029
G01 X21.5266 Y47.4750
G01 X21.0987 Y47.2369
G01 X20.8222 Y47.0360
G01 X20.5696 Y46.8112
G01 X20.2454 Y46.4441
G01 X20.0534 Y46.1657
G01 X19.8882 Y45.8666
G01 X19.7046 Y45.4123
G01 X19.6156 Y45.0825
G01 X19.5602 Y44.7490
G01 X19.5383 Y44.2597
G01 X19.5643 Y43.9189
G01 X19.6251 Y43.5779
G01 X7.2368 Y43.5698
G01 X7.1261 Y43.5421
G01 X7.0354 Y43.4556
G01 X7.0019 Y43.3348
G01 X7.0020 Y27.3289
G00 Z2.5400
G00 X7.4720 Y27.5678
G01 F76.20
G01 Z-0.0950
G01 F76.20
G01 X20.6990 Y27.5678
G01 X20.7671 Y27.5578
G01 X20.8447 Y27.5172
G01 X20.9026 Y27.4502
G01 X20.9316 Y27.3664
G01 X20.9271 Y27.2760
G01 X20.8985 Y27.2086
G01 X20.6678 Y26.8628
G01 X20.5010 Y26.5089
G01 X20.3880 Y26.1344
G01 X20.3311 Y25.7473
G01 X20.3250 Y25.4865
G01 X20.3638 Y25.0972
G01 X20.4212 Y24.8427
G01 X20.5533 Y24.4744
G01 X20.7380 Y24.1296
G01 X20.9713 Y23.8155
G01 X21.2480 Y23.5390
G01 X21.5624 Y23.3061
G01 X21.9075 Y23.1219
G01 X22.1509 Y23.0280
G01 X22.5304 Y22.9330
G01 X22.9198 Y22.8947
G01 X23.3105 Y22.9139
G01 X23.6942 Y22.9902
G01 X24.0626 Y23.1219
G01 X24.4077 Y23.3062
G01 X24.7220 Y23.5391
G01 X24.9111 Y23.7189
G01 X25.1595 Y24.0211
G01 X25.3608 Y24.3565
G01 X25.5108 Y24.7178
G01 X25.6063 Y25.0972
G01 X25.6450 Y25.4865
G01 X25.6389 Y25.7474
G01 X25.5820 Y26.1344
G01 X25.4690 Y26.5089
G01 X25.3022 Y26.8628
G01 X25.0714 Y27.2086
G01 X25.0429 Y27.2759
G01 X25.0380 Y27.3634
G01 X25.0638 Y27.4437
G01 X25.1189 Y27.5120
G01 X25.1956 Y27.5554
G01 X25.2710 Y27.5678
G01 X36.9739 Y27.5678
G01 X36.9739 Y43.0998
G01 X26.0327 Y43.0998
G01 X25.9645 Y43.1099
G01 X25.8986 Y43.1420
G01 X25.8459 Y43.1925
G01 X25.8115 Y43.2560
G01 X25.7981 Y43.3279
G01 X25.9166 Y43.8286
G01 X25.9534 Y44.1149
G01 X25.9562 Y44.5477
G01 X25.9232 Y44.8345
G01 X25.8220 Y45.2553
G01 X25.7211 Y45.5258
G01 X25.5945 Y45.7852
G01 X25.4433 Y46.0312
G01 X25.1738 Y46.3698
G01 X24.9680 Y46.5722
G01 X24.7435 Y46.7538
G01 X24.3766 Y46.9834
G01 X23.9803 Y47.1573
G01 X23.7038 Y47.2405
G01 X23.2774 Y47.3142
G01 X22.9890 Y47.3286
G01 X22.5573 Y47.2977
G01 X22.2740 Y47.2424
G01 X21.8623 Y47.1088
G01 X21.6005 Y46.9871
G01 X21.3517 Y46.8407
G01 X21.0080 Y46.5776
G01 X20.8017 Y46.3757
G01 X20.5312 Y46.0378
G01 X20.3794 Y45.7923
G01 X20.1980 Y45.3994
G01 X20.1095 Y45.1246
G01 X20.0481 Y44.8425
G01 X20.0143 Y44.5558
G01 X20.0159 Y44.1230
G01 X20.0520 Y43.8366
G01 X20.1691 Y43.3356
G01 X20.1554 Y43.2634
G01 X20.1185 Y43.1972
G01 X20.0649 Y43.1477
G01 X19.9953 Y43.1161
G01 X7.4720 Y43.0999
G01 X7.4720 Y27.5678
G00 Z2.5400
G00 X7.8640 Y30.3515
G01 F76.20
G01 Z-0.0950
G01 F76.20
G01 X7.8994 Y30.1783
G01 X7.9987 Y30.0300
G01 X9.3114 Y28.7182
G01 X9.4398 Y28.6364
G01 X9.5735 Y28.6021
G01 X16.6807 Y28.6006
G01 X16.8108 Y28.6273
G01 X16.9314 Y28.6928
G01 X17.4155 Y29.1705
G01 X17.4555 Y29.0598
G01 X17.5272 Y28.9630
G01 X17.6240 Y28.8913
G01 X17.7379 Y28.8506
G01 X19.3002 Y28.8428
G01 X20.1369 Y28.0070
G01 X20.2490 Y27.9325
G01 X20.3783 Y27.8935
G01 X26.3115 Y27.8893
G01 X26.4641 Y27.9241
G01 X26.5951 Y28.0070
G01 X27.7476 Y29.1586
G01 X30.1387 Y29.1606
G01 X30.2224 Y29.2003
G01 X30.2680 Y29.2722
G01 X30.2750 Y29.5956
G01 X30.3567 Y29.4415
G01 X30.3080 Y29.1800
G01 X30.3269 Y28.9276
G01 X30.4020 Y28.7002
G01 X30.5078 Y28.5237
G01 X30.6025 Y28.4143
G01 X30.7119 Y28.3196
G01 X30.9266 Y28.1969
G01 X31.1693 Y28.1293
G01 X31.4166 Y28.1234
G01 X31.6606 Y28.1789
G01 X31.7928 Y28.2378
G01 X31.9152 Y28.3149
G01 X32.0977 Y28.4881
G01 X32.2301 Y28.6974
G01 X32.3076 Y28.9332
G01 X32.3252 Y29.1819
G01 X32.3076 Y29.3238
G01 X32.2689 Y29.4650
G01 X32.1584 Y29.6866
G01 X32.3468 Y29.5179
G01 X32.4457 Y29.4736
G01 X32.5418 Y29.4545
G01 X34.9630 Y29.4526
G01 X35.0786 Y29.4674
G01 X35.1799 Y29.5070
G01 X35.2749 Y29.5745
G01 X36.5491 Y30.8482
G01 X36.6446 Y30.9911
G01 X36.6805 Y31.1463
G01 X36.6788 Y33.5928
G01 X36.6373 Y33.7428
G01 X36.5464 Y33.8722
G01 X29.9939 Y40.4132
G01 X29.8863 Y40.4673
G01 X29.7536 Y40.4925
G01 X27.7230 Y40.4929
G01 X27.7181 Y40.8719
G01 X27.6761 Y40.9459
G01 X27.6096 Y40.9858
G01 X25.9392 Y40.9910
G01 X25.8444 Y40.9403
G01 X25.8032 Y40.8409
G01 X25.8032 Y39.2246
G01 X25.8219 Y39.1573
G01 X25.8676 Y39.1043
G01 X25.9630 Y39.0728
G01 X27.5867 Y39.0746
G01 X27.6704 Y39.1143
G01 X27.7181 Y39.1937
G01 X27.7230 Y39.5726
G01 X29.5444 Y39.5726
G01 X35.7608 Y33.3562
G01 X35.7608 Y31.3614
G01 X34.7724 Y30.3729
G01 X32.7736 Y30.3729
G01 X32.3351 Y30.8114
G01 X32.3351 Y31.0608
G01 X32.7564 Y31.0639
G01 X32.8325 Y31.1022
G01 X32.8801 Y31.1817
G01 X32.8850 Y32.9208
G01 X32.8580 Y33.0097
G01 X32.8005 Y33.0618
G01 X32.7331 Y33.0806
G01 X31.0168 Y33.0806
G01 X30.9296 Y33.0493
G01 X30.8719 Y32.9674
G01 X30.8650 Y32.6189
G01 X28.2150 Y32.6188
G01 X28.1536 Y32.6066
G01 X28.0865 Y32.5542
G01 X28.0558 Y32.4748
G01 X28.0598 Y31.8197
G01 X28.1134 Y31.7351
G01 X28.2068 Y31.6990
G01 X30.8650 Y31.6986
G01 X30.8652 Y31.2126
G01 X30.8878 Y31.1384
G01 X30.9360 Y31.0878
G01 X31.0013 Y31.0626
G01 X31.4148 Y31.0608
G01 X31.4155 Y30.5963
G01 X31.4503 Y30.4437
G01 X31.5332 Y30.3127
G01 X31.8748 Y29.9702
G01 X31.7068 Y30.0600
G01 X31.5583 Y30.1091
G01 X31.3682 Y30.1371
G01 X31.1751 Y30.1284
G01 X31.1695 Y30.4702
G01 X31.1397 Y30.5759
G01 X31.0829 Y30.6752
G01 X30.5165 Y31.2448
G01 X30.3837 Y31.3207
G01 X30.2436 Y31.3485
G01 X28.1609 Y31.3394
G01 X28.0913 Y31.2903
G01 X28.0568 Y31.2125
G01 X28.0550 Y30.5888
G01 X28.0644 Y30.5347
G01 X28.0964 Y30.4813
G01 X28.1395 Y30.4477
G01 X28.1990 Y30.4296
G01 X30.0344 Y30.4286
G01 X30.2548 Y30.2082
G01 X30.2548 Y29.9964
G01 X30.1973 Y30.0560
G01 X30.1231 Y30.0786
G01 X27.8056 Y30.0789
G01 X27.7631 Y30.1214
G01 X27.7622 Y36.9348
G01 X27.7215 Y37.0263
G01 X27.6344 Y37.0757
G01 X26.9948 Y37.0786
G01 X26.9344 Y37.0634
G01 X26.8844 Y37.0263
G01 X26.8524 Y36.9729
G01 X26.8430 Y36.9188
G01 X26.8429 Y29.9268
G01 X26.8697 Y29.7758
G01 X26.9381 Y29.6506
G01 X26.0964 Y28.8089
G01 X20.6356 Y28.8089
G01 X19.9270 Y29.5175
G01 X19.9270 Y30.4955
G01 X19.9094 Y30.6111
G01 X19.8581 Y30.7198
G01 X19.7706 Y30.8145
G01 X19.6662 Y30.8744
G01 X19.5244 Y30.9026
G01 X17.8144 Y30.9028
G01 X17.6532 Y30.8683
G01 X17.5264 Y30.7817
G01 X17.4414 Y30.6565
G01 X17.4090 Y30.5330
G01 X17.4070 Y30.3289
G01 X17.2873 Y30.2964
G01 X17.1721 Y30.2260
G01 X16.4636 Y29.5201
G01 X9.8101 Y29.5201
G01 X8.7843 Y30.5460
G01 X8.7843 Y39.3494
G01 X11.1055 Y41.6707
G01 X21.3430 Y41.6707
G01 X23.3553 Y39.6649
G01 X23.4545 Y39.6081
G01 X23.5602 Y39.5782
G01 X23.9206 Y39.5726
G01 X24.0814 Y39.3568
G01 X24.2661 Y39.2114
G01 X24.4851 Y39.1139
G01 X24.7120 Y39.0742
G01 X24.8580 Y39.0775
G01 X24.9962 Y39.1015
G01 X25.1314 Y39.1463
G01 X25.2561 Y39.2091
G01 X25.3716 Y39.2904
G01 X25.4752 Y39.3890
G01 X25.5618 Y39.5003
G01 X25.6325 Y39.6259
G01 X25.6942 Y39.7996
G01 X25.7216 Y39.9818
G01 X25.7179 Y40.1308
G01 X25.6819 Y40.3107
G01 X25.6096 Y40.4854
G01 X25.5054 Y40.6414
G01 X25.3716 Y40.7752
G01 X25.2231 Y40.8752
G01 X25.2231 Y40.9736
G01 X25.8542 Y41.6046
G01 X29.3090 Y41.6046
G01 X31.1048 Y39.8126
G01 X31.1976 Y39.7545
G01 X31.3077 Y39.7188
G01 X31.6826 Y39.7106
G01 X31.8111 Y39.5290
G01 X31.9563 Y39.3974
G01 X32.1540 Y39.2854
G01 X32.3394 Y39.2289
G01 X32.5289 Y39.2108
G01 X32.7544 Y39.2387
G01 X32.9347 Y39.3026
G01 X33.0991 Y39.4014
G01 X33.2389 Y39.5290
G01 X33.3697 Y39.7148
G01 X33.4439 Y39.8929
G01 X33.4807 Y40.0806
G01 X33.4669 Y40.3563
G01 X33.4283 Y40.4958
G01 X33.3735 Y40.6198
G01 X33.2336 Y40.8184
G01 X33.0219 Y40.9921
G01 X32.8500 Y41.0741
G01 X32.6650 Y41.1205
G01 X32.4760 Y41.1295
G01 X32.2918 Y41.1020
G01 X32.1540 Y41.0562
G01 X31.9925 Y40.9696
G01 X31.8128 Y40.8145
G01 X31.6826 Y40.6309
G01 X31.5842 Y40.6309
G01 X29.8086 Y42.4057
G01 X29.6928 Y42.4824
G01 X29.5456 Y42.5226
G01 X25.6636 Y42.5249
G01 X25.5070 Y42.4975
G01 X25.3517 Y42.4031
G01 X24.4098 Y41.4591
G01 X24.3467 Y41.3602
G01 X24.3113 Y41.2522
G01 X24.3028 Y40.8752
G01 X24.0842 Y40.7116
G01 X23.9206 Y40.4929
G01 X23.8222 Y40.4929
G01 X21.8455 Y42.4691
G01 X21.7296 Y42.5472
G01 X21.6050 Y42.5854
G01 X10.8689 Y42.5887
G01 X10.7189 Y42.5472
G01 X10.5895 Y42.4562
G01 X7.9960 Y39.8626
G01 X7.9202 Y39.7604
G01 X7.8777 Y39.6518
G01 X7.8640 Y39.5400
G01 X7.8640 Y30.3515
G00 Z2.5400
G00 X10.5489 Y30.1868
G01 F76.20
G01 Z-0.0950
G01 F76.20
G01 X10.8153 Y30.2257
G01 X11.0902 Y29.9636
G01 X11.1937 Y29.9123
G01 X11.3185 Y29.8874
G01 X14.5690 Y29.8866
G01 X14.6988 Y29.9054
G01 X14.8051 Y29.9518
G01 X14.8916 Y30.0187
G01 X16.8256 Y31.9526
G01 X17.5158 Y31.9526
G01 X17.6765 Y31.7182
G01 X17.7839 Y31.6163
G01 X17.9041 Y31.5314
G01 X18.1418 Y31.4260
G01 X18.2867 Y31.3938
G01 X18.4370 Y31.3828
G01 X18.9940 Y31.3874
G01 X19.2455 Y31.4436
G01 X19.4261 Y31.5291
G01 X19.5877 Y31.6488
G01 X19.7226 Y31.7970
G01 X19.8182 Y31.9526
G01 X20.0004 Y31.9526
G01 X21.4069 Y30.5470
G01 X21.5353 Y30.4652
G01 X21.6738 Y30.4305
G01 X25.2364 Y30.4319
G01 X25.3181 Y30.4757
G01 X25.3632 Y30.5651
G01 X25.3648 Y31.1969
G01 X25.3527 Y31.2502
G01 X25.3181 Y31.3019
G01 X25.2664 Y31.3366
G01 X25.2131 Y31.3486
G01 X21.9056 Y31.3489
G01 X20.5164 Y32.7382
G01 X20.4271 Y32.8077
G01 X20.3423 Y32.8473
G01 X20.2370 Y32.8706
G01 X19.8182 Y32.8729
G01 X19.6956 Y33.0632
G01 X19.5534 Y33.2065
G01 X19.3826 Y33.3211
G01 X19.1952 Y33.3987
G01 X18.9495 Y33.4414
G01 X18.3825 Y33.4413
G01 X18.2378 Y33.4233
G01 X18.0937 Y33.3839
G01 X17.8656 Y33.2698
G01 X17.6730 Y33.1035
G01 X17.5158 Y32.8729
G01 X16.6085 Y32.8721
G01 X16.4837 Y32.8473
G01 X16.3802 Y32.7960
G01 X14.3784 Y30.8069
G01 X11.5356 Y30.8069
G01 X11.4660 Y30.8765
G01 X11.5050 Y31.1468
G01 X11.4947 Y31.2868
G01 X11.4625 Y31.4292
G01 X11.3453 Y31.6768
G01 X11.1887 Y31.8589
G01 X11.0774 Y31.9456
G01 X10.9547 Y32.0150
G01 X10.8229 Y32.0657
G01 X10.6897 Y32.0958
G01 X10.4470 Y32.1017
G01 X10.3118 Y32.0780
G01 X10.1766 Y32.0333
G01 X10.0481 Y31.9681
G01 X9.9012 Y31.8589
G01 X9.8004 Y31.7527
G01 X9.6984 Y31.5994
G01 X9.6275 Y31.4292
G01 X9.5952 Y31.2868
G01 X9.5850 Y31.1429
G01 X9.6031 Y30.9612
G01 X9.6425 Y30.8197
G01 X9.7213 Y30.6537
G01 X9.8054 Y30.5348
G01 X9.9363 Y30.4044
G01 X10.0548 Y30.3214
G01 X10.2200 Y30.2435
G01 X10.4002 Y30.1978
G01 X10.5489 Y30.1868
G00 Z2.5400
G00 X13.7489 Y31.4168
G01 F76.20
G01 Z-0.0950
G01 F76.20
G01 X13.9361 Y31.4360
G01 X14.1519 Y31.5073
G01 X14.3191 Y31.6074
G01 X14.4571 Y31.7330
G01 X14.5916 Y31.9242
G01 X14.6771 Y32.1473
G01 X14.7049 Y32.3807
G01 X14.6660 Y32.6471
G01 X16.5116 Y34.4926
G01 X17.5158 Y34.4926
G01 X17.6730 Y34.2620
G01 X17.8656 Y34.0958
G01 X18.0937 Y33.9817
G01 X18.2378 Y33.9422
G01 X18.3845 Y33.9241
G01 X18.9495 Y33.9241
G01 X19.1922 Y33.9660
G01 X19.3366 Y34.0213
G01 X19.4683 Y34.0958
G01 X19.5877 Y34.1888
G01 X19.6897 Y34.2953
G01 X22.1544 Y31.8307
G01 X22.2566 Y31.7549
G01 X22.3690 Y31.7115
G01 X22.4769 Y31.6986
G01 X24.0420 Y31.6980
G01 X24.2191 Y31.6626
G01 X24.3977 Y31.6988
G01 X25.2441 Y31.7036
G01 X25.3235 Y31.7513
G01 X25.3632 Y31.8351
G01 X25.3642 Y32.4748
G01 X25.3496 Y32.5273
G01 X25.3125 Y32.5773
G01 X25.2131 Y32.6186
G01 X22.6676 Y32.6189
G01 X20.0084 Y35.2782
G01 X19.9229 Y35.3454
G01 X19.8301 Y35.3887
G01 X19.6935 Y35.6059
G01 X19.5137 Y35.7777
G01 X19.2922 Y35.9040
G01 X19.0520 Y35.9710
G01 X18.8970 Y35.9828
G01 X18.3351 Y35.9777
G01 X18.0884 Y35.9220
G01 X17.8615 Y35.8070
G01 X17.6730 Y35.6435
G01 X17.5158 Y35.4129
G01 X16.3023 Y35.4125
G01 X16.1912 Y35.3942
G01 X16.1006 Y35.3567
G01 X15.9956 Y35.2782
G01 X14.0153 Y33.2978
G01 X13.7489 Y33.3367
G01 X13.5118 Y33.3080
G01 X13.2890 Y33.2215
G01 X13.1709 Y33.1462
G01 X13.0662 Y33.0556
G01 X12.9756 Y32.9509
G01 X12.8984 Y32.8294
G01 X12.8417 Y32.7018
G01 X12.8031 Y32.5623
G01 X12.7862 Y32.4258
G01 X12.7897 Y32.2818
G01 X12.8137 Y32.1436
G01 X12.8585 Y32.0084
G01 X12.9213 Y31.8837
G01 X13.0026 Y31.7681
G01 X13.1012 Y31.6646
G01 X13.2125 Y31.5780
G01 X13.3353 Y31.5086
G01 X13.4671 Y31.4579
G01 X13.6050 Y31.4270
G01 X13.7489 Y31.4168
G00 Z2.5400
G00 X18.4370 Y36.4628
G01 F76.20
G01 Z-0.0950
G01 F76.20
G01 X18.9940 Y36.4674
G01 X19.2477 Y36.5244
G01 X19.4231 Y36.6074
G01 X19.5534 Y36.6991
G01 X19.6935 Y36.8397
G01 X19.7933 Y36.9858
G01 X20.7540 Y36.0250
G01 X20.7095 Y35.8099
G01 X20.7165 Y35.5627
G01 X20.7823 Y35.3273
G01 X20.9054 Y35.1109
G01 X21.0338 Y34.9691
G01 X21.1548 Y34.8744
G01 X21.3249 Y34.7832
G01 X21.4734 Y34.7342
G01 X21.6635 Y34.7061
G01 X21.8623 Y34.7156
G01 X22.0568 Y34.7644
G01 X22.2338 Y34.8482
G01 X22.3923 Y34.9656
G01 X22.5245 Y35.1109
G01 X22.6284 Y35.2837
G01 X22.6956 Y35.4732
G01 X22.7200 Y35.6149
G01 X22.7237 Y35.7663
G01 X22.7059 Y35.9101
G01 X22.6672 Y36.0513
G01 X22.5525 Y36.2792
G01 X22.4642 Y36.3921
G01 X22.3587 Y36.4930
G01 X22.1461 Y36.6282
G01 X21.9103 Y36.7057
G01 X21.6635 Y36.7235
G01 X21.4048 Y36.6757
G01 X20.2285 Y37.8488
G01 X20.1373 Y37.9070
G01 X20.0487 Y37.9392
G01 X19.8182 Y37.9529
G01 X19.6956 Y38.1432
G01 X19.5500 Y38.2893
G01 X19.3409 Y38.4222
G01 X19.1434 Y38.4928
G01 X18.9436 Y38.5217
G01 X18.3904 Y38.5217
G01 X18.2322 Y38.5022
G01 X18.0465 Y38.4458
G01 X17.8656 Y38.3498
G01 X17.7059 Y38.2183
G01 X17.5556 Y38.0257
G01 X17.4659 Y37.8361
G01 X17.4120 Y37.5946
G01 X17.4180 Y37.3425
G01 X17.4858 Y37.0976
G01 X17.6074 Y36.8824
G01 X17.7482 Y36.7270
G01 X17.9549 Y36.5826
G01 X18.1868 Y36.4936
G01 X18.4370 Y36.4628
G00 Z2.5400
G00 X23.1452 Y33.7369
G01 F76.20
G01 Z-0.0950
G01 F76.20
G01 X23.1468 Y33.1051
G01 X23.1864 Y33.0213
G01 X23.2735 Y32.9719
G01 X25.8295 Y32.9693
G01 X25.9982 Y33.0112
G01 X26.1304 Y33.1034
G01 X26.4049 Y33.3859
G01 X26.4657 Y33.5002
G01 X26.4913 Y33.6156
G01 X26.4930 Y36.9188
G01 X26.4807 Y36.9802
G01 X26.4461 Y37.0319
G01 X26.3944 Y37.0666
G01 X26.3411 Y37.0786
G01 X25.7170 Y37.0780
G01 X25.6315 Y37.0424
G01 X25.5778 Y36.9579
G01 X25.5728 Y33.8889
G01 X23.2968 Y33.8886
G01 X23.2364 Y33.8734
G01 X23.1918 Y33.8419
G01 X23.1604 Y33.7973
G01 X23.1452 Y33.7369
G00 Z2.5400
G00 X23.2968 Y29.1590
G01 F76.20
G01 Z-0.0950
G01 F76.20
G01 X25.2050 Y29.1588
G01 X25.2664 Y29.1710
G01 X25.3335 Y29.2234
G01 X25.3642 Y29.3028
G01 X25.3650 Y29.9188
G01 X25.3527 Y29.9802
G01 X25.2939 Y30.0518
G01 X25.2131 Y30.0786
G01 X23.3050 Y30.0788
G01 X23.2436 Y30.0666
G01 X23.1765 Y30.0142
G01 X23.1468 Y29.9425
G01 X23.1452 Y29.3106
G01 X23.1604 Y29.2503
G01 X23.1918 Y29.2057
G01 X23.2365 Y29.1742
G01 X23.2968 Y29.1590
G00 Z2.5400
G00 X11.1865 Y39.4809
G01 F76.20
G01 Z-0.0950
G01 F76.20
G01 X11.0381 Y39.5904
G01 X10.8700 Y39.6701
G01 X10.6850 Y39.7165
G01 X10.4959 Y39.7255
G01 X10.3118 Y39.6980
G01 X10.1353 Y39.6350
G01 X9.9709 Y39.5362
G01 X9.8328 Y39.4105
G01 X9.7213 Y39.2599
G01 X9.6417 Y39.0918
G01 X9.5952 Y38.9068
G01 X9.5862 Y38.7177
G01 X9.6137 Y38.5336
G01 X9.6768 Y38.3571
G01 X9.7756 Y38.1927
G01 X9.9012 Y38.0546
G01 X10.0959 Y37.9183
G01 X10.3539 Y37.8260
G01 X10.5940 Y37.8080
G01 X10.8274 Y37.8493
G01 X11.0750 Y37.9664
G01 X11.2571 Y38.1230
G01 X11.3934 Y38.3177
G01 X11.4823 Y38.5606
G01 X12.5189 Y38.5607
G01 X12.6523 Y38.5816
G01 X12.7482 Y38.6241
G01 X12.8230 Y38.6790
G01 X13.2942 Y39.1492
G01 X13.4671 Y39.0779
G01 X13.6500 Y39.0415
G01 X13.8400 Y39.0415
G01 X14.0274 Y39.0793
G01 X14.1976 Y39.1502
G01 X14.3570 Y39.2572
G01 X14.4895 Y39.3908
G01 X14.6060 Y39.5726
G01 X17.5158 Y39.5726
G01 X17.6765 Y39.3382
G01 X17.7839 Y39.2363
G01 X17.9041 Y39.1514
G01 X18.1418 Y39.0460
G01 X18.2867 Y39.0138
G01 X18.4370 Y39.0028
G01 X18.9988 Y39.0078
G01 X19.1472 Y39.0336
G01 X19.2922 Y39.0816
G01 X19.4659 Y39.1742
G01 X19.5916 Y39.2723
G01 X19.7226 Y39.4170
G01 X19.8182 Y39.5726
G01 X21.2704 Y39.5726
G01 X21.7628 Y39.0802
G01 X21.7635 Y37.5843
G01 X21.7885 Y37.4575
G01 X21.8398 Y37.3540
G01 X23.5866 Y35.6009
G01 X23.6859 Y35.5441
G01 X23.7994 Y35.5131
G01 X24.3030 Y35.5086
G01 X24.3061 Y34.9873
G01 X24.3555 Y34.9003
G01 X24.4470 Y34.8596
G01 X25.0867 Y34.8606
G01 X25.1583 Y34.8903
G01 X25.2107 Y34.9574
G01 X25.2230 Y35.0188
G01 X25.2231 Y37.3282
G01 X25.7076 Y37.8126
G01 X29.2324 Y37.8126
G01 X30.3112 Y36.7338
G01 X28.8396 Y35.2622
G01 X28.7700 Y35.1729
G01 X28.7244 Y35.0696
G01 X28.7055 Y34.9613
G01 X28.7048 Y33.8888
G01 X28.1990 Y33.8880
G01 X28.1326 Y33.8660
G01 X28.0820 Y33.8178
G01 X28.0552 Y33.7369
G01 X28.0550 Y33.1288
G01 X28.0672 Y33.0674
G01 X28.1018 Y33.0157
G01 X28.1536 Y32.9810
G01 X28.2150 Y32.9688
G01 X30.1150 Y32.9688
G01 X30.1764 Y32.9810
G01 X30.2335 Y33.0213
G01 X30.2656 Y33.0747
G01 X30.2750 Y33.1288
G01 X30.2748 Y33.7369
G01 X30.2480 Y33.8178
G01 X30.1973 Y33.8660
G01 X30.1309 Y33.8880
G01 X29.6251 Y33.8888
G01 X29.6251 Y34.7462
G01 X30.9620 Y36.0830
G01 X31.6040 Y35.4411
G01 X31.5650 Y35.1747
G01 X31.5937 Y34.9376
G01 X31.6802 Y34.7148
G01 X31.7556 Y34.5967
G01 X31.8462 Y34.4920
G01 X31.9509 Y34.4014
G01 X32.0690 Y34.3260
G01 X32.2918 Y34.2395
G01 X32.5289 Y34.2108
G01 X32.7953 Y34.2497
G01 X33.9548 Y33.0902
G01 X33.9548 Y32.9696
G01 X33.7338 Y32.8165
G01 X33.6339 Y32.7112
G01 X33.5507 Y32.5934
G01 X33.4646 Y32.4126
G01 X33.4158 Y32.2181
G01 X33.4099 Y31.9709
G01 X33.4627 Y31.7342
G01 X33.5507 Y31.5482
G01 X33.7036 Y31.3539
G01 X33.8111 Y31.2612
G01 X33.9354 Y31.1819
G01 X34.1658 Y31.0921
G01 X34.4150 Y31.0608
G01 X34.6603 Y31.0910
G01 X34.8911 Y31.1801
G01 X35.0961 Y31.3251
G01 X35.1960 Y31.4304
G01 X35.2792 Y31.5482
G01 X35.3803 Y31.7738
G01 X35.4142 Y31.9234
G01 X35.4250 Y32.0708
G01 X35.4142 Y32.2181
G01 X35.3803 Y32.3677
G01 X35.3057 Y32.5469
G01 X35.1932 Y32.7145
G01 X35.0554 Y32.8518
G01 X34.8751 Y32.9696
G01 X34.8728 Y33.3268
G01 X34.8208 Y33.4977
G01 X34.7404 Y33.6062
G01 X33.4460 Y34.9005
G01 X33.4837 Y35.1217
G01 X33.4669 Y35.3563
G01 X33.3932 Y35.5805
G01 X33.2674 Y35.7794
G01 X33.1687 Y35.8829
G01 X33.0575 Y35.9696
G01 X32.9347 Y36.0390
G01 X32.8029 Y36.0897
G01 X32.6650 Y36.1205
G01 X32.5250 Y36.1308
G01 X32.2547 Y36.0918
G01 X29.7456 Y38.6009
G01 X29.6591 Y38.6677
G01 X29.5603 Y38.7119
G01 X29.4230 Y38.7329
G01 X25.5170 Y38.7329
G01 X25.3399 Y38.6975
G01 X25.1944 Y38.6009
G01 X24.4349 Y37.8413
G01 X24.3663 Y37.7519
G01 X24.3224 Y37.6516
G01 X24.3035 Y37.5433
G01 X24.3028 Y36.4289
G01 X24.0536 Y36.4289
G01 X22.6831 Y37.7994
G01 X22.6831 Y39.2747
G01 X22.6477 Y39.4479
G01 X22.5613 Y39.5827
G01 X21.7836 Y40.3609
G01 X21.6813 Y40.4367
G01 X21.5690 Y40.4801
G01 X21.4610 Y40.4929
G01 X19.8182 Y40.4929
G01 X19.6610 Y40.7235
G01 X19.4683 Y40.8898
G01 X19.2403 Y41.0039
G01 X19.0962 Y41.0433
G01 X18.9495 Y41.0614
G01 X18.3399 Y41.0582
G01 X18.1868 Y41.0319
G01 X18.0465 Y40.9858
G01 X17.8680 Y40.8913
G01 X17.7424 Y40.7933
G01 X17.6114 Y40.6486
G01 X17.5158 Y40.4929
G01 X14.5668 Y40.4929
G01 X14.4874 Y40.6054
G01 X14.3887 Y40.7089
G01 X14.2774 Y40.7956
G01 X14.1590 Y40.8629
G01 X13.9284 Y40.9390
G01 X13.7940 Y40.9555
G01 X13.6500 Y40.9521
G01 X13.4671 Y40.9157
G01 X13.2959 Y40.8452
G01 X13.1700 Y40.7655
G01 X13.0328 Y40.6405
G01 X12.9213 Y40.4899
G01 X12.8417 Y40.3218
G01 X12.7952 Y40.1368
G01 X12.7866 Y39.9431
G01 X12.3244 Y39.4809
G01 X11.1865 Y39.4809
G00 Z2.5400
M05
G00 Z2.5400
G00 Z12.70
G00 X0.0 Y0.0

M02